;FLAVOR:Marlin
;TIME:7940
;Filament used: 5.75686m
;Layer height: 0.2
;MINX:59.42
;MINY:73.501
;MINZ:0.2
;MAXX:175.579
;MAXY:161.036
;MAXZ:10
;TARGET_MACHINE.NAME:Creality Ender-3
;POSTPROCESSED
;  [PauseAtHeight]
;Generated with Cura_SteamEngine 5.9.0
M140 S70
M105
M190 S70
M104 S240
M105
M109 S240
M82 ;absolute extrusion mode
; Ender 3 Custom Start G-code
G92 E0 ; Reset Extruder
G28 ; Home all axes
G1 Z2.0 F3000 ; Move Z Axis up little to prevent scratching of Heat Bed
G1 X0.1 Y20 Z0.3 F5000.0 ; Move to start position
G1 X0.1 Y200.0 Z0.3 F1500.0 E15 ; Draw the first line
G1 X0.4 Y200.0 Z0.3 F5000.0 ; Move to side a little
G1 X0.4 Y20 Z0.3 F1500.0 E30 ; Draw the second line
G92 E0 ; Reset Extruder
G1 Z2.0 F3000 ; Move Z Axis up little to prevent scratching of Heat Bed
G1 X5 Y20 Z0.3 F5000.0 ; Move over to prevent blob squish
G92 E0
G92 E0
G1 F2700 E-5
;LAYER_COUNT:50
;LAYER:0
M107
G0 F6000 X81.25 Y111.75 Z0.2
;TYPE:SKIRT
G1 F2700 E0
G1 F900 X81.25 Y111.25 E0.01663
G1 X80.75 Y111.25 E0.03326
G1 X80.75 Y111.75 E0.04989
G1 X81.25 Y111.75 E0.06652
G0 F6000 X81.65 Y112.15
G1 F900 X81.65 Y110.85 E0.10976
G1 X80.35 Y110.85 E0.153
G1 X80.35 Y112.15 E0.19623
G1 X81.65 Y112.15 E0.23947
G0 F6000 X82.05 Y112.55
G1 F900 X82.05 Y110.45 E0.30932
G1 X79.95 Y110.45 E0.37917
G1 X79.95 Y112.55 E0.44901
G1 X82.05 Y112.55 E0.51886
G0 F6000 X82.45 Y112.95
G1 F900 X82.45 Y110.05 E0.61531
G1 X79.55 Y110.05 E0.71177
G1 X79.55 Y112.95 E0.80822
G1 X82.45 Y112.95 E0.90468
G0 F6000 X82.85 Y113.35
G1 F900 X82.85 Y109.65 E1.02774
G1 X79.15 Y109.65 E1.1508
G1 X79.15 Y113.35 E1.27386
G1 X82.85 Y113.35 E1.39693
G0 F6000 X83.25 Y113.75
G1 F900 X83.25 Y109.25 E1.5466
G1 X78.75 Y109.25 E1.69627
G1 X78.75 Y113.75 E1.84594
G1 X83.25 Y113.75 E1.99561
G0 F6000 X83.65 Y114.15
G1 F900 X83.65 Y108.85 E2.17189
G1 X78.35 Y108.85 E2.34817
G1 X78.35 Y114.15 E2.52444
G1 X83.65 Y114.15 E2.70072
G0 F6000 X84.05 Y114.55
G1 F900 X84.05 Y108.45 E2.90361
G1 X77.95 Y108.45 E3.1065
G1 X77.95 Y114.55 E3.30938
G1 X84.05 Y114.55 E3.51227
G0 F6000 X84.45 Y114.95
G1 F900 X84.45 Y108.05 E3.74177
G1 X77.55 Y108.05 E3.97126
G1 X77.55 Y114.95 E4.20076
G1 X84.45 Y114.95 E4.43025
G0 F6000 X84.85 Y115.35
G1 F900 X77.15 Y115.35 E4.68635
G1 X77.15 Y107.65 E4.94246
G1 X84.85 Y107.65 E5.19856
G1 X84.85 Y115.35 E5.45466
G0 F6000 X85.25 Y115.75
G1 F900 X85.25 Y107.25 E5.73737
G1 X76.75 Y107.25 E6.02008
G1 X76.75 Y115.75 E6.3028
G1 X85.25 Y115.75 E6.58551
G0 F6000 X85.65 Y116.15
G1 F900 X76.35 Y116.15 E6.89483
G1 X76.35 Y106.85 E7.20415
G1 X85.65 Y106.85 E7.51346
G1 X85.65 Y116.15 E7.82278
G0 F6000 X86.05 Y116.55
G1 F900 X86.05 Y106.45 E8.15871
G1 X75.95 Y106.45 E8.49464
G1 X75.95 Y116.55 E8.83057
G1 X86.05 Y116.55 E9.16649
G0 F6000 X86.45 Y116.95
G1 F900 X75.55 Y116.95 E9.52903
G1 X75.55 Y106.05 E9.89156
G1 X86.45 Y106.05 E10.2541
G1 X86.45 Y116.95 E10.61664
G0 F6000 X86.85 Y117.35
G1 F900 X86.85 Y105.65 E11.00578
G1 X75.15 Y105.65 E11.39492
G1 X75.15 Y117.35 E11.78407
G1 X86.85 Y117.35 E12.17321
G0 F6000 X87.65 Y118.15
G1 F900 X87.65 Y104.85 E12.61557
G1 X74.35 Y104.85 E13.05793
G1 X74.35 Y111.386 E13.27532
G1 X74.323 Y111.507 E13.27944
G1 X74.349 Y111.614 E13.2831
G1 X74.35 Y118.15 E13.50049
G1 X87.65 Y118.15 E13.94285
G0 F6000 X87.25 Y117.75
G1 F900 X87.25 Y105.25 E14.3586
G1 X74.75 Y105.25 E14.77435
G1 X74.75 Y117.75 E15.19011
G1 X87.25 Y117.75 E15.60586
G1 F2700 E10.60586
G0 F6000 X87.964 Y141.182
G1 F2700 E15.60586
G1 F900 X87.995 Y140.253 E15.63677
G1 X88.041 Y139.721 E15.65453
G1 X88.145 Y138.967 E15.67985
G1 X88.221 Y138.543 E15.69418
G1 X87.47 Y138.744 E15.72003
G1 X86.163 Y139.027 E15.76451
G1 X84.993 Y139.22 E15.80395
G1 X83.504 Y139.387 E15.85379
G1 X82.02 Y139.48 E15.90324
G1 X80.61 Y139.5 E15.95014
G1 X79.275 Y139.451 E15.99458
G1 X78.136 Y139.358 E16.03259
G1 X76.546 Y139.145 E16.08594
G1 X75.516 Y138.961 E16.12074
G1 X73.823 Y138.56 E16.17861
G1 X72.531 Y138.187 E16.22334
G1 X71.31 Y137.769 E16.26626
G1 X69.996 Y137.247 E16.31329
G1 X68.796 Y136.701 E16.35714
G1 X67.5 Y136.033 E16.40563
G1 X66.471 Y135.439 E16.44515
G1 X65.181 Y134.602 E16.49629
G1 X64.121 Y133.838 E16.53975
G1 X62.957 Y132.91 E16.58927
G1 X61.854 Y131.906 E16.63887
G1 X60.803 Y130.723 E16.69151
G1 X59.827 Y128.736 E16.76514
G1 X59.643 Y128.149 E16.7856
G1 X59.42 Y125.415 E16.87683
G1 X59.908 Y123.76 E16.93422
G1 X65.265 Y111.504 E17.37909
G1 X60.119 Y99.795 E17.80449
G1 X59.533 Y97.519 E17.88266
G1 X59.452 Y96.506 E17.91646
G1 X59.845 Y94.468 E17.98549
G1 X60.27 Y93.161 E18.0312
G1 X61.532 Y91.333 E18.10508
G1 X63.27 Y89.824 E18.18164
G1 X64.188 Y89.105 E18.22042
G1 X65.523 Y88.169 E18.27465
G1 X66.683 Y87.439 E18.32023
G1 X67.849 Y86.782 E18.36475
G1 X69.143 Y86.14 E18.41279
G1 X70.401 Y85.589 E18.45847
G1 X71.69 Y85.092 E18.50442
G1 X72.945 Y84.679 E18.54836
G1 X74.219 Y84.329 E18.59231
G1 X75.528 Y84.039 E18.6369
G1 X77.052 Y83.784 E18.68829
G1 X78.445 Y83.619 E18.73495
G1 X79.515 Y83.549 E18.77061
G1 X79.574 Y82.482 E18.80616
G1 X79.766 Y81.031 E18.85484
G1 X80.499 Y79.013 E18.92625
G1 X81.848 Y76.901 E19.0096
G1 X83.543 Y75.473 E19.08332
G1 X84.845 Y74.655 E19.13446
G1 X86.319 Y73.949 E19.18882
G1 X87.758 Y73.669 E19.23758
G1 X89.547 Y73.505 E19.29733
G1 X89.981 Y73.506 E19.31176
G1 X91.715 Y73.658 E19.36966
G1 X92.307 Y73.757 E19.38962
G1 X92.985 Y73.909 E19.41273
G1 X93.711 Y74.106 E19.43775
G1 X94.493 Y74.358 E19.46508
G1 X95.379 Y74.677 E19.4964
G1 X96.125 Y74.987 E19.52327
G1 X97.348 Y75.572 E19.56836
G1 X98.573 Y76.23 E19.61461
G1 X100.111 Y77.143 E19.67409
G1 X101.219 Y76.668 E19.71419
G1 X102.612 Y76.123 E19.76394
G1 X104.095 Y75.617 E19.81606
G1 X105.5 Y75.187 E19.86493
G1 X106.923 Y74.807 E19.91392
G1 X108.364 Y74.469 E19.96314
G1 X109.854 Y74.171 E20.01368
G1 X111.342 Y73.935 E20.06379
G1 X112.792 Y73.76 E20.11237
G1 X114.245 Y73.626 E20.1609
G1 X115.728 Y73.534 E20.21032
G1 X117.175 Y73.502 E20.25846
G1 X118.653 Y73.509 E20.30762
G1 X120.137 Y73.577 E20.35703
G1 X121.638 Y73.694 E20.40711
G1 X123.05 Y73.853 E20.45437
G1 X124.56 Y74.075 E20.50513
G1 X125.994 Y74.337 E20.55361
G1 X127.493 Y74.657 E20.60459
G1 X128.897 Y75.017 E20.6528
G1 X130.469 Y75.477 E20.70728
G1 X132.117 Y76.026 E20.76505
G1 X133.739 Y76.647 E20.82282
G1 X134.907 Y77.153 E20.86516
G1 X135.249 Y76.928 E20.87877
G1 X136.137 Y76.396 E20.9132
G1 X137.046 Y75.887 E20.94785
G1 X137.896 Y75.45 E20.97964
G1 X138.572 Y75.126 E21.00457
G1 X139.377 Y74.78 E21.03372
G1 X140.139 Y74.48 E21.06095
G1 X140.907 Y74.218 E21.08794
G1 X142.317 Y73.836 E21.13653
G1 X142.897 Y73.716 E21.15623
G1 X144.962 Y73.505 E21.22527
G1 X145.253 Y73.501 E21.23495
G1 X147.412 Y73.621 E21.30687
G1 X149.613 Y74.4 E21.38452
G1 X150.976 Y75.052 E21.43478
G1 X152.531 Y76.392 E21.50305
G1 X153.523 Y77.531 E21.55329
G1 X154.132 Y78.476 E21.59068
G1 X154.97 Y80.371 E21.6596
G1 X155.291 Y81.597 E21.70175
G1 X155.468 Y82.855 E21.744
G1 X155.502 Y83.54 E21.76681
G1 X156.944 Y83.651 E21.81492
G1 X158.422 Y83.848 E21.86451
G1 X159.552 Y84.052 E21.9027
G1 X161.13 Y84.425 E21.95663
G1 X162.329 Y84.769 E21.99812
G1 X163.713 Y85.239 E22.04673
G1 X164.973 Y85.732 E22.09173
G1 X166.051 Y86.22 E22.13109
G1 X167.456 Y86.941 E22.18362
G1 X168.553 Y87.574 E22.22574
G1 X169.806 Y88.388 E22.27544
G1 X170.931 Y89.2 E22.32158
G1 X172.037 Y90.08 E22.36859
G1 X173.178 Y91.122 E22.41999
G1 X174.226 Y92.317 E22.47285
G1 X175.334 Y94.597 E22.55716
G1 X175.579 Y97.601 E22.65741
G1 X175.046 Y99.364 E22.71867
G1 X169.736 Y111.499 E23.15923
G1 X175.061 Y123.709 E23.60228
G1 X175.45 Y125.08 E23.64968
G1 X175.524 Y126.636 E23.70149
G1 X175.17 Y128.471 E23.76365
G1 X174.734 Y129.829 E23.81108
G1 X173.497 Y131.651 E23.88433
G1 X171.794 Y133.124 E23.95922
G1 X170.716 Y133.965 E24.00469
G1 X169.503 Y134.814 E24.05394
G1 X168.377 Y135.522 E24.09818
G1 X167.133 Y136.232 E24.14582
G1 X166.128 Y136.74 E24.18327
G1 X164.67 Y137.386 E24.23631
G1 X163.389 Y137.877 E24.28194
G1 X162.046 Y138.315 E24.32893
G1 X160.796 Y138.661 E24.37206
G1 X159.372 Y138.977 E24.42058
G1 X158.017 Y139.209 E24.4663
G1 X156.651 Y139.374 E24.51207
G1 X155.279 Y139.471 E24.55781
G1 X153.898 Y139.5 E24.60375
G1 X152.529 Y139.46 E24.64931
G1 X151.161 Y139.353 E24.69495
G1 X149.849 Y139.183 E24.73895
G1 X148.458 Y138.941 E24.78591
G1 X147.112 Y138.639 E24.83179
G1 X146.789 Y138.549 E24.84294
G1 X146.877 Y139.084 E24.86097
G1 X146.978 Y139.985 E24.89113
G1 X147.024 Y140.715 E24.91546
G1 X147.035 Y141.299 E24.93489
G1 X147.036 Y145.984 E25.09071
G1 X147.015 Y146.558 E25.10981
G1 X146.941 Y147.402 E25.13799
G1 X146.859 Y148.043 E25.15949
G1 X146.762 Y148.594 E25.17809
G1 X146.5 Y149.703 E25.216
G1 X146.307 Y150.37 E25.23909
G1 X146.054 Y151.106 E25.26497
G1 X145.846 Y151.63 E25.28373
G1 X145.523 Y152.347 E25.30988
G1 X145.245 Y152.9 E25.33047
G1 X144.728 Y153.797 E25.3649
G1 X144.496 Y154.162 E25.37929
G1 X143.854 Y155.049 E25.41571
G1 X143.463 Y155.541 E25.43661
G1 X142.938 Y156.135 E25.46298
G1 X142.417 Y156.668 E25.48777
G1 X141.926 Y157.13 E25.51019
G1 X141.45 Y157.54 E25.53108
G1 X140.637 Y158.172 E25.56533
G1 X140.346 Y158.376 E25.57715
G1 X139.382 Y158.975 E25.6149
G1 X138.942 Y159.222 E25.63169
G1 X137.982 Y159.686 E25.66715
G1 X137.342 Y159.957 E25.69026
G1 X136.62 Y160.225 E25.71588
G1 X136.098 Y160.394 E25.73413
G1 X135.177 Y160.635 E25.76579
G1 X134.524 Y160.776 E25.78801
G1 X133.882 Y160.881 E25.80965
G1 X133.022 Y160.977 E25.83843
G1 X132.198 Y161.024 E25.86588
G1 X127.016 Y161.036 E26.03824
G1 X126.422 Y161.014 E26.05801
G1 X125.585 Y160.941 E26.08595
G1 X125.016 Y160.867 E26.10503
G1 X124.307 Y160.746 E26.12896
G1 X123.484 Y160.554 E26.15707
G1 X122.66 Y160.314 E26.18561
G1 X121.847 Y160.029 E26.21426
G1 X121.236 Y159.782 E26.23618
G1 X120.639 Y159.515 E26.25794
G1 X120.1 Y159.244 E26.278
G1 X119.205 Y158.728 E26.31236
G1 X118.84 Y158.496 E26.32675
G1 X117.939 Y157.842 E26.36378
G1 X117.504 Y157.493 E26.38233
G1 X116.637 Y158.172 E26.41895
G1 X116.346 Y158.376 E26.43077
G1 X115.382 Y158.975 E26.46852
G1 X114.942 Y159.222 E26.4853
G1 X113.982 Y159.686 E26.52077
G1 X113.342 Y159.957 E26.54388
G1 X112.62 Y160.225 E26.5695
G1 X112.098 Y160.394 E26.58775
G1 X111.178 Y160.635 E26.61938
G1 X110.527 Y160.776 E26.64153
G1 X109.97 Y160.869 E26.66032
G1 X108.97 Y160.981 E26.69378
G1 X108.327 Y161.024 E26.71522
G1 X107.92 Y161.035 E26.72876
G1 X103.035 Y161.035 E26.89124
G1 X102.412 Y161.013 E26.91197
G1 X101.585 Y160.941 E26.93958
G1 X101.016 Y160.867 E26.95866
G1 X100.307 Y160.746 E26.98259
G1 X99.484 Y160.554 E27.01069
G1 X98.66 Y160.314 E27.03924
G1 X97.847 Y160.029 E27.06789
G1 X97.236 Y159.782 E27.08981
G1 X96.639 Y159.515 E27.11157
G1 X96.1 Y159.244 E27.13163
G1 X95.205 Y158.728 E27.16599
G1 X94.84 Y158.496 E27.18038
G1 X93.939 Y157.842 E27.21741
G1 X93.348 Y157.368 E27.2426
G1 X92.909 Y156.978 E27.26213
G1 X92.312 Y156.396 E27.28987
G1 X91.871 Y155.932 E27.31116
G1 X91.556 Y155.57 E27.32712
G1 X90.815 Y154.61 E27.36745
G1 X90.496 Y154.146 E27.38618
G1 X90.016 Y153.361 E27.41678
G1 X89.711 Y152.808 E27.43779
G1 X89.314 Y151.984 E27.46821
G1 X89.048 Y151.356 E27.49089
G1 X88.775 Y150.62 E27.517
G1 X88.606 Y150.098 E27.53525
G1 X88.365 Y149.178 E27.56688
G1 X88.224 Y148.526 E27.58907
G1 X88.125 Y147.926 E27.6093
G1 X88.019 Y146.96 E27.64162
G1 X87.976 Y146.287 E27.66405
G1 X87.965 Y145.701 E27.68354
G1 X87.964 Y141.182 E27.83384
G0 F6000 X88.364 Y141.195
G1 F900 X88.394 Y140.287 E27.86406
G1 X88.44 Y139.755 E27.88182
G1 X88.539 Y139.037 E27.90593
G1 X88.676 Y138.27 E27.93184
G1 X88.743 Y137.989 E27.94145
G1 X87.385 Y138.353 E27.98821
G1 X86.098 Y138.632 E28.03201
G1 X84.948 Y138.822 E28.07078
G1 X83.459 Y138.989 E28.12061
G1 X82.014 Y139.08 E28.16877
G1 X80.625 Y139.1 E28.21497
G1 X79.308 Y139.052 E28.25881
G1 X78.169 Y138.959 E28.29682
G1 X76.616 Y138.751 E28.34893
G1 X75.586 Y138.567 E28.38373
G1 X73.934 Y138.176 E28.44019
G1 X72.661 Y137.809 E28.48426
G1 X71.458 Y137.397 E28.52655
G1 X70.144 Y136.875 E28.57358
G1 X68.979 Y136.346 E28.61613
G1 X67.7 Y135.686 E28.664
G1 X66.689 Y135.103 E28.70282
G1 X65.415 Y134.277 E28.75332
G1 X64.37 Y133.525 E28.79614
G1 X63.226 Y132.614 E28.84478
G1 X62.153 Y131.64 E28.89298
G1 X61.138 Y130.498 E28.9438
G1 X60.209 Y128.617 E29.01357
G1 X60.039 Y128.073 E29.03253
G1 X59.825 Y125.456 E29.11986
G1 X60.275 Y123.92 E29.1731
G1 X65.702 Y111.504 E29.62378
G1 X60.485 Y99.634 E30.05503
G1 X59.932 Y97.487 E30.12877
G1 X59.855 Y96.528 E30.16077
G1 X60.238 Y94.544 E30.22797
G1 X60.633 Y93.339 E30.27015
G1 X61.832 Y91.602 E30.34035
G1 X63.517 Y90.139 E30.41457
G1 X64.418 Y89.433 E30.45264
G1 X65.753 Y88.497 E30.50687
G1 X66.879 Y87.787 E30.55114
G1 X68.027 Y87.14 E30.59497
G1 X69.304 Y86.506 E30.64239
G1 X70.545 Y85.962 E30.68746
G1 X71.815 Y85.472 E30.73274
G1 X73.051 Y85.065 E30.77602
G1 X74.306 Y84.72 E30.81931
G1 X75.615 Y84.43 E30.8639
G1 X77.099 Y84.181 E30.91395
G1 X78.471 Y84.018 E30.9599
G1 X79.894 Y83.925 E31.00733
G1 X79.971 Y82.534 E31.05367
G1 X80.157 Y81.126 E31.1009
G1 X80.861 Y79.189 E31.16945
G1 X82.151 Y77.169 E31.24917
G1 X83.801 Y75.779 E31.32093
G1 X85.018 Y75.016 E31.3687
G1 X86.446 Y74.332 E31.42136
G1 X87.834 Y74.062 E31.46839
G1 X89.546 Y73.905 E31.52558
G1 X89.98 Y73.906 E31.54001
G1 X91.649 Y74.053 E31.59574
G1 X92.241 Y74.152 E31.6157
G1 X92.88 Y74.295 E31.63748
G1 X93.588 Y74.487 E31.66188
G1 X94.37 Y74.739 E31.6892
G1 X95.226 Y75.047 E31.71946
G1 X95.952 Y75.348 E31.7456
G1 X97.175 Y75.933 E31.79069
G1 X98.369 Y76.574 E31.83577
G1 X99.706 Y77.368 E31.88749
G1 X100.058 Y77.601 E31.90153
G1 X101.365 Y77.041 E31.94882
G1 X102.758 Y76.496 E31.99857
G1 X104.212 Y75.999 E32.04968
G1 X105.603 Y75.573 E32.09806
G1 X107.014 Y75.196 E32.14664
G1 X108.442 Y74.861 E32.19542
G1 X109.917 Y74.566 E32.24545
G1 X111.39 Y74.332 E32.29506
G1 X112.829 Y74.158 E32.34327
G1 X114.27 Y74.025 E32.3914
G1 X115.737 Y73.934 E32.44029
G1 X117.173 Y73.902 E32.48806
G1 X118.635 Y73.909 E32.53669
G1 X120.106 Y73.976 E32.58567
G1 X121.593 Y74.092 E32.63527
G1 X122.992 Y74.249 E32.6821
G1 X124.488 Y74.468 E32.73238
G1 X125.91 Y74.728 E32.78046
G1 X127.394 Y75.045 E32.83094
G1 X128.785 Y75.401 E32.87869
G1 X130.343 Y75.857 E32.93268
G1 X131.974 Y76.4 E32.98986
G1 X133.58 Y77.014 E33.04705
G1 X134.946 Y77.606 E33.09656
G1 X135.455 Y77.271 E33.11683
G1 X136.333 Y76.745 E33.15087
G1 X137.229 Y76.243 E33.18503
G1 X138.069 Y75.811 E33.21645
G1 X138.745 Y75.487 E33.24138
G1 X139.524 Y75.152 E33.26958
G1 X140.268 Y74.859 E33.29618
G1 X141.036 Y74.597 E33.32317
G1 X142.398 Y74.228 E33.3701
G1 X142.978 Y74.108 E33.3898
G1 X144.967 Y73.905 E33.4563
G1 X145.258 Y73.901 E33.46598
G1 X147.332 Y74.017 E33.53507
G1 X149.44 Y74.761 E33.60942
G1 X150.756 Y75.391 E33.65795
G1 X152.229 Y76.655 E33.7225
G1 X153.221 Y77.794 E33.77274
G1 X153.766 Y78.638 E33.80616
G1 X154.604 Y80.533 E33.87507
G1 X154.895 Y81.653 E33.91356
G1 X155.068 Y82.875 E33.95461
G1 X155.102 Y83.558 E33.97735
G1 X155.082 Y83.927 E33.98965
G1 X155.625 Y83.945 E34.00772
G1 X156.911 Y84.05 E34.05063
G1 X158.351 Y84.242 E34.09895
G1 X159.481 Y84.446 E34.13714
G1 X161.02 Y84.809 E34.18973
G1 X162.2 Y85.148 E34.23057
G1 X163.567 Y85.612 E34.27858
G1 X164.827 Y86.105 E34.32358
G1 X165.868 Y86.576 E34.36159
G1 X167.273 Y87.297 E34.41411
G1 X168.335 Y87.91 E34.45489
G1 X169.572 Y88.713 E34.50395
G1 X170.682 Y89.513 E34.54945
G1 X171.768 Y90.376 E34.59559
G1 X172.877 Y91.386 E34.64548
G1 X173.89 Y92.541 E34.69658
G1 X174.941 Y94.704 E34.77656
G1 X175.174 Y97.558 E34.8718
G1 X174.663 Y99.248 E34.93053
G1 X169.3 Y111.5 E35.37536
G1 X174.676 Y123.818 E35.82238
G1 X175.052 Y125.144 E35.86822
G1 X175.122 Y126.609 E35.917
G1 X174.789 Y128.349 E35.97592
G1 X174.371 Y129.651 E36.0214
G1 X173.196 Y131.382 E36.09099
G1 X171.532 Y132.821 E36.16416
G1 X170.487 Y133.637 E36.20826
G1 X169.29 Y134.475 E36.25685
G1 X168.164 Y135.183 E36.30109
G1 X166.952 Y135.875 E36.34751
G1 X165.966 Y136.374 E36.38427
G1 X164.527 Y137.012 E36.43662
G1 X163.246 Y137.503 E36.48225
G1 X161.939 Y137.929 E36.52797
G1 X160.689 Y138.275 E36.57111
G1 X159.304 Y138.583 E36.6183
G1 X157.969 Y138.812 E36.66335
G1 X156.623 Y138.975 E36.70845
G1 X155.27 Y139.071 E36.75356
