;FLAVOR:Marlin
;TIME:2567
;Filament used: 1.88547m
;Layer height: 0.2
;MINX:91.271
;MINY:88.015
;MINZ:0.2
;MAXX:144.592
;MAXY:146.982
;MAXZ:10
;TARGET_MACHINE.NAME:Creality Ender-3
;Generated with Cura_SteamEngine 5.9.0
M140 S70
M105
M190 S70
M104 S240
M105
M109 S240
M82 ;absolute extrusion mode
; Ender 3 Custom Start G-code
G92 E0 ; Reset Extruder
G28 ; Home all axes
G1 Z2.0 F3000 ; Move Z Axis up little to prevent scratching of Heat Bed
G1 X0.1 Y20 Z0.3 F5000.0 ; Move to start position
G1 X0.1 Y200.0 Z0.3 F1500.0 E15 ; Draw the first line
G1 X0.4 Y200.0 Z0.3 F5000.0 ; Move to side a little
G1 X0.4 Y20 Z0.3 F1500.0 E30 ; Draw the second line
G92 E0 ; Reset Extruder
G1 Z2.0 F3000 ; Move Z Axis up little to prevent scratching of Heat Bed
G1 X5 Y20 Z0.3 F5000.0 ; Move over to prevent blob squish
G92 E0
G92 E0
G1 F2700 E-5
;LAYER_COUNT:50
;LAYER:0
M107
G0 F6000 X123.471 Y146.858 Z0.2
;TYPE:SKIRT
G1 F2700 E0
G1 F900 X121.9 Y146.953 E0.05235
G1 X121.149 Y146.982 E0.07734
G1 X120.227 Y146.979 E0.10801
G1 X118.922 Y146.917 E0.15146
G1 X117.977 Y146.855 E0.18296
G1 X117.109 Y146.759 E0.21201
G1 X115.787 Y146.554 E0.2565
G1 X114.819 Y146.382 E0.2892
G1 X113.925 Y146.182 E0.31967
G1 X112.482 Y145.793 E0.36938
G1 X111.743 Y145.577 E0.39499
G1 X110.881 Y145.283 E0.42528
G1 X109.61 Y144.789 E0.47063
G1 X108.92 Y144.505 E0.49545
G1 X108.354 Y144.25 E0.5161
G1 X107.57 Y143.868 E0.54511
G1 X107.167 Y143.66 E0.56019
G1 X106.05 Y143.056 E0.60243
G1 X105.455 Y142.709 E0.62533
G1 X104.688 Y142.22 E0.65559
G1 X104.031 Y141.779 E0.68191
G1 X103.243 Y141.226 E0.71393
G1 X102.786 Y140.885 E0.73289
G1 X102.286 Y140.485 E0.75419
G1 X101.46 Y139.789 E0.79011
G1 X100.646 Y139.069 E0.82626
G1 X100.05 Y138.497 E0.85373
G1 X99.056 Y137.459 E0.90153
G1 X98.466 Y136.809 E0.93073
G1 X97.951 Y136.197 E0.95733
G1 X97.214 Y135.248 E0.9973
G1 X96.564 Y134.364 E1.03379
G1 X96.122 Y133.707 E1.06013
G1 X95.4 Y132.541 E1.10574
G1 X95.042 Y131.93 E1.1293
G1 X94.659 Y131.221 E1.1561
G1 X94.458 Y130.824 E1.1709
G1 X93.896 Y129.652 E1.21413
G1 X93.669 Y129.146 E1.23258
G1 X93.409 Y128.521 E1.25509
G1 X93.202 Y127.983 E1.27426
G1 X92.747 Y126.698 E1.3196
G1 X92.52 Y126.006 E1.34383
G1 X92.265 Y125.115 E1.37465
G1 X92.145 Y124.641 E1.39091
G1 X91.947 Y123.777 E1.42039
G1 X91.734 Y122.726 E1.45606
G1 X91.646 Y122.222 E1.47308
G1 X91.499 Y121.199 E1.50745
G1 X91.424 Y120.504 E1.5307
G1 X91.335 Y119.517 E1.56366
G1 X91.3 Y118.975 E1.58173
G1 X91.273 Y118.133 E1.60975
G1 X91.271 Y117.223 E1.64002
G1 X91.291 Y116.248 E1.67245
G1 X91.314 Y115.745 E1.6892
G1 X91.362 Y115.134 E1.70958
G1 X91.493 Y113.87 E1.75185
G1 X91.6 Y113.062 E1.77896
G1 X91.728 Y112.306 E1.80446
G1 X91.937 Y111.284 E1.83916
G1 X92.042 Y110.827 E1.85475
G1 X92.335 Y109.661 E1.89474
G1 X92.535 Y108.963 E1.91889
G1 X92.976 Y107.636 E1.9654
G1 X93.409 Y106.47 E2.00677
G1 X93.705 Y105.756 E2.03247
G1 X94.12 Y104.858 E2.06538
G1 X94.661 Y103.769 E2.10582
G1 X95.058 Y103.028 E2.13378
G1 X95.284 Y102.641 E2.14869
G1 X95.728 Y101.916 E2.17696
G1 X96.203 Y101.169 E2.20641
G1 X96.608 Y100.568 E2.23051
G1 X96.937 Y100.112 E2.24921
G1 X97.418 Y99.483 E2.27555
G1 X98.131 Y98.587 E2.31363
G1 X98.638 Y97.99 E2.33968
G1 X99.306 Y97.268 E2.3724
G1 X100.159 Y96.4 E2.41288
G1 X100.636 Y95.937 E2.43499
G1 X101.101 Y95.516 E2.45585
G1 X101.724 Y94.984 E2.4831
G1 X102.724 Y94.168 E2.52603
G1 X103.051 Y93.916 E2.53976
G1 X103.547 Y93.556 E2.56014
G1 X104.539 Y92.884 E2.59999
G1 X105.4 Y92.33 E2.63405
G1 X106.137 Y91.898 E2.66246
G1 X107.513 Y91.168 E2.71427
G1 X108.397 Y90.73 E2.74708
G1 X109.256 Y90.351 E2.77831
G1 X110.646 Y89.81 E2.82792
G1 X111.33 Y89.559 E2.85215
G1 X112.258 Y89.266 E2.88452
G1 X113.493 Y88.933 E2.92706
G1 X114.444 Y88.697 E2.95965
G1 X115.339 Y88.518 E2.99001
G1 X116.821 Y88.288 E3.03989
G1 X117.586 Y88.186 E3.06556
G1 X118.477 Y88.104 E3.09532
G1 X119.742 Y88.043 E3.13744
G1 X120.742 Y88.015 E3.17071
G1 X121.553 Y88.025 E3.19769
G1 X122.393 Y88.07 E3.22567
G1 X123.892 Y88.186 E3.27568
G1 X124.755 Y88.287 E3.30457
G1 X125.531 Y88.415 E3.33073
G1 X126.831 Y88.653 E3.37469
G1 X127.566 Y88.816 E3.39973
G1 X128.802 Y89.145 E3.44227
G1 X130.041 Y89.52 E3.48533
G1 X130.706 Y89.744 E3.50867
G1 X131.475 Y90.039 E3.53606
G1 X132.285 Y90.371 E3.56518
G1 X133.174 Y90.76 E3.59745
G1 X133.898 Y91.109 E3.62418
G1 X135.304 Y91.864 E3.67726
G1 X136.069 Y92.305 E3.70663
G1 X136.753 Y92.736 E3.73352
G1 X137.72 Y93.396 E3.77246
G1 X138.684 Y94.096 E3.81209
G1 X139.302 Y94.586 E3.83832
G1 X140.523 Y95.634 E3.89184
G1 X141.026 Y96.092 E3.91446
G1 X141.667 Y96.729 E3.94452
G1 X142.339 Y97.529 E3.97927
G1 X142.897 Y98.328 E4.01168
G1 X143.347 Y99.11 E4.04169
G1 X143.786 Y100.059 E4.07647
G1 X144.113 Y100.977 E4.10888
G1 X144.356 Y101.919 E4.14124
G1 X144.518 Y102.88 E4.17365
G1 X144.592 Y103.852 E4.20607
G1 X144.582 Y104.815 E4.2381
G1 X144.523 Y105.486 E4.26051
G1 X144.163 Y108.565 E4.36361
G1 X143.946 Y111.057 E4.44681
G1 X143.801 Y113.574 E4.53067
G1 X143.726 Y116.078 E4.61399
G1 X143.722 Y118.625 E4.6987
G1 X143.789 Y121.125 E4.78188
G1 X143.926 Y123.589 E4.86396
G1 X144.139 Y126.152 E4.9495
G1 X144.353 Y128.106 E5.01488
G1 X144.523 Y129.536 E5.06278
G1 X144.592 Y130.508 E5.09519
G1 X144.574 Y131.481 E5.12755
G1 X144.471 Y132.451 E5.16
G1 X144.298 Y133.337 E5.19002
G1 X144.008 Y134.34 E5.22475
G1 X143.654 Y135.247 E5.25713
G1 X143.238 Y136.088 E5.28834
G1 X142.712 Y136.95 E5.32193
G1 X142.132 Y137.732 E5.35431
G1 X141.493 Y138.453 E5.38635
G1 X141.009 Y138.922 E5.40877
G1 X140.314 Y139.548 E5.43988
G1 X139.246 Y140.457 E5.48652
G1 X138.778 Y140.832 E5.50647
G1 X138.047 Y141.371 E5.53668
G1 X136.754 Y142.257 E5.58881
G1 X136.323 Y142.538 E5.60592
G1 X135.619 Y142.96 E5.63322
G1 X134.863 Y143.379 E5.66197
G1 X134.013 Y143.83 E5.69398
G1 X133.461 Y144.108 E5.71453
G1 X132.882 Y144.372 E5.7357
G1 X131.664 Y144.88 E5.77959
G1 X130.712 Y145.248 E5.81354
G1 X129.972 Y145.503 E5.83957
G1 X128.862 Y145.836 E5.87811
G1 X127.782 Y146.129 E5.91533
G1 X126.965 Y146.316 E5.94321
G1 X125.828 Y146.53 E5.98169
G1 X124.424 Y146.754 E6.02898
G1 X123.471 Y146.858 E6.06086
G0 F6000 X124.381 Y146.356
G1 F900 X123.428 Y146.46 E6.09275
G1 X121.884 Y146.553 E6.14419
G1 X121.15 Y146.582 E6.16863
G1 X120.246 Y146.579 E6.19869
G1 X118.948 Y146.518 E6.24191
G1 X118.021 Y146.457 E6.27281
G1 X117.153 Y146.361 E6.30186
G1 X115.857 Y146.16 E6.34548
G1 X114.906 Y145.992 E6.3776
G1 X114.029 Y145.796 E6.40749
G1 X112.594 Y145.409 E6.45692
G1 X111.872 Y145.198 E6.48194
G1 X111.026 Y144.91 E6.51166
G1 X109.762 Y144.419 E6.55676
G1 X109.084 Y144.14 E6.58115
G1 X108.529 Y143.89 E6.6014
G1 X107.754 Y143.513 E6.63006
G1 X107.357 Y143.308 E6.64492
G1 X106.252 Y142.71 E6.68671
G1 X105.657 Y142.363 E6.70962
G1 X104.911 Y141.888 E6.73903
G1 X104.261 Y141.451 E6.76508
G1 X103.482 Y140.905 E6.79672
G1 X103.036 Y140.572 E6.81524
G1 X102.544 Y140.179 E6.83618
G1 X101.725 Y139.49 E6.87178
G1 X100.923 Y138.78 E6.9074
G1 X100.339 Y138.22 E6.93432
G1 X99.352 Y137.19 E6.98176
G1 X98.772 Y136.551 E7.01047
G1 X98.267 Y135.951 E7.03655
G1 X97.536 Y135.011 E7.07615
G1 X96.896 Y134.141 E7.11208
G1 X96.462 Y133.496 E7.13793
G1 X95.745 Y132.339 E7.18321
G1 X95.394 Y131.74 E7.2063
G1 X95.016 Y131.041 E7.23273
G1 X94.819 Y130.651 E7.24726
G1 X94.261 Y129.488 E7.29016
G1 X94.038 Y128.992 E7.30825
G1 X93.782 Y128.377 E7.33041
G1 X93.579 Y127.849 E7.34922
G1 X93.127 Y126.573 E7.39425
G1 X92.905 Y125.896 E7.41794
G1 X92.653 Y125.016 E7.44839
G1 X92.535 Y124.552 E7.46431
G1 X92.339 Y123.698 E7.49346
G1 X92.128 Y122.657 E7.52878
G1 X92.042 Y122.165 E7.5454
G1 X91.897 Y121.156 E7.5793
G1 X91.822 Y120.468 E7.60232
G1 X91.734 Y119.491 E7.63494
G1 X91.7 Y118.962 E7.65258
G1 X91.673 Y118.132 E7.6802
G1 X91.671 Y117.231 E7.71016
G1 X91.691 Y116.266 E7.74227
G1 X91.713 Y115.776 E7.75858
G1 X91.76 Y115.175 E7.77863
G1 X91.89 Y113.923 E7.8205
G1 X91.997 Y113.115 E7.84761
G1 X92.12 Y112.386 E7.87219
G1 X92.327 Y111.373 E7.90658
G1 X92.43 Y110.924 E7.9219
G1 X92.719 Y109.771 E7.96144
G1 X92.915 Y109.089 E7.98504
G1 X93.351 Y107.775 E8.03109
G1 X93.778 Y106.623 E8.07195
G1 X94.068 Y105.924 E8.09712
G1 X94.478 Y105.036 E8.12965
G1 X95.013 Y103.958 E8.16968
G1 X95.404 Y103.229 E8.19719
G1 X95.625 Y102.85 E8.21179
G1 X96.065 Y102.131 E8.23982
G1 X96.535 Y101.393 E8.26892
G1 X96.94 Y100.792 E8.29303
G1 X97.255 Y100.355 E8.31095
G1 X97.731 Y99.732 E8.33702
G1 X98.436 Y98.846 E8.37468
G1 X98.932 Y98.262 E8.40017
G1 X99.6 Y97.54 E8.43288
G1 X100.438 Y96.687 E8.47265
G1 X100.905 Y96.233 E8.49432
G1 X101.361 Y95.82 E8.51478
G1 X101.977 Y95.294 E8.54172
G1 X102.968 Y94.485 E8.58427
G1 X103.286 Y94.24 E8.59762
G1 X103.772 Y93.887 E8.6176
G1 X104.755 Y93.22 E8.65711
G1 X105.602 Y92.675 E8.69061
G1 X106.325 Y92.251 E8.71849
G1 X107.691 Y91.526 E8.76992
G1 X108.558 Y91.096 E8.80211
G1 X109.401 Y90.724 E8.83276
G1 X110.784 Y90.186 E8.88211
G1 X111.468 Y89.935 E8.90635
G1 X112.362 Y89.652 E8.93754
G1 X113.59 Y89.321 E8.97984
G1 X114.523 Y89.089 E9.01181
G1 X115.4 Y88.913 E9.04156
G1 X116.874 Y88.684 E9.09118
G1 X117.623 Y88.584 E9.11631
G1 X118.496 Y88.504 E9.14547
G1 X119.753 Y88.443 E9.18733
G1 X120.737 Y88.415 E9.22007
G1 X121.531 Y88.424 E9.24648
G1 X122.362 Y88.469 E9.27416
G1 X123.845 Y88.583 E9.32363
G1 X124.69 Y88.682 E9.35192
G1 X125.459 Y88.808 E9.37784
G1 X126.745 Y89.044 E9.42133
G1 X127.463 Y89.203 E9.44579
G1 X128.686 Y89.528 E9.48788
G1 X129.913 Y89.899 E9.53051
G1 X130.563 Y90.118 E9.55333
G1 X131.323 Y90.409 E9.58039
G1 X132.125 Y90.738 E9.60922
G1 X133 Y91.12 E9.64098
G1 X133.709 Y91.462 E9.66716
G1 X135.104 Y92.21 E9.71981
G1 X135.856 Y92.644 E9.74869
G1 X136.527 Y93.066 E9.77505
G1 X137.485 Y93.72 E9.81363
G1 X138.436 Y94.41 E9.85271
G1 X139.042 Y94.89 E9.87842
G1 X140.254 Y95.93 E9.93154
G1 X140.744 Y96.376 E9.95358
G1 X141.385 Y97.013 E9.98363
G1 X142.011 Y97.758 E10.016
G1 X142.55 Y98.528 E10.04726
G1 X143 Y99.31 E10.07727
G1 X143.409 Y100.194 E10.10967
G1 X143.726 Y101.078 E10.1409
G1 X143.962 Y101.986 E10.1721
G1 X144.119 Y102.911 E10.20331
G1 X144.192 Y103.848 E10.23457
G1 X144.183 Y104.781 E10.2656
G1 X144.126 Y105.44 E10.2876
G1 X143.766 Y108.519 E10.39071
G1 X143.548 Y111.022 E10.47427
G1 X143.401 Y113.562 E10.5589
G1 X143.326 Y116.066 E10.64222
G1 X143.322 Y118.624 E10.7273
G1 X143.389 Y121.136 E10.81087
G1 X143.527 Y123.622 E10.89369
G1 X143.741 Y126.196 E10.97959
G1 X143.956 Y128.15 E11.04498
G1 X144.124 Y129.565 E11.09237
G1 X144.192 Y130.501 E11.12358
G1 X144.176 Y131.439 E11.15479
G1 X144.078 Y132.374 E11.18605
G1 X143.905 Y133.26 E11.21608
G1 X143.635 Y134.195 E11.24845
G1 X143.295 Y135.07 E11.27967
G1 X142.879 Y135.911 E11.31088
G1 X142.39 Y136.712 E11.34209
G1 X141.832 Y137.467 E11.37332
G1 X141.214 Y138.166 E11.40435
G1 X140.741 Y138.625 E11.42627
G1 X140.055 Y139.243 E11.45698
G1 X138.995 Y140.145 E11.50327
G1 X138.541 Y140.51 E11.52265
G1 X137.821 Y141.041 E11.5524
G1 X136.536 Y141.922 E11.60422
G1 X136.117 Y142.195 E11.62086
G1 X135.425 Y142.61 E11.64769
G1 X134.675 Y143.026 E11.67622
G1 X133.833 Y143.473 E11.70793
G1 X133.295 Y143.744 E11.72796
G1 X132.728 Y144.003 E11.74869
G1 X131.52 Y144.507 E11.79223
G1 X130.582 Y144.87 E11.82568
G1 X129.857 Y145.12 E11.85119
G1 X128.757 Y145.45 E11.88939
G1 X127.693 Y145.739 E11.92606
G1 X126.891 Y145.923 E11.95342
G1 X125.765 Y146.135 E11.99153
G1 X124.381 Y146.356 E12.03815
G0 F6000 X124.338 Y145.958
G1 F900 X123.385 Y146.062 E12.07003
G1 X121.868 Y146.153 E12.12058
G1 X121.151 Y146.182 E12.14445
G1 X120.265 Y146.179 E12.17392
G1 X118.974 Y146.119 E12.2169
G1 X118.065 Y146.059 E12.2472
G1 X117.197 Y145.963 E12.27625
G1 X115.926 Y145.766 E12.31902
G1 X114.993 Y145.602 E12.35053
G1 X114.133 Y145.41 E12.37984
G1 X112.706 Y145.025 E12.429
G1 X112.001 Y144.819 E12.45343
G1 X111.171 Y144.537 E12.48258
G1 X109.914 Y144.049 E12.52743
G1 X109.248 Y143.775 E12.55138
G1 X108.704 Y143.53 E12.57123
G1 X107.937 Y143.157 E12.5996
G1 X107.547 Y142.956 E12.61419
G1 X106.454 Y142.365 E12.65552
G1 X105.872 Y142.025 E12.67793
G1 X105.134 Y141.556 E12.70702
G1 X104.491 Y141.124 E12.73278
G1 X103.721 Y140.584 E12.76406
G1 X103.285 Y140.259 E12.78215
G1 X102.801 Y139.873 E12.80274
G1 X101.99 Y139.191 E12.83798
G1 X101.2 Y138.491 E12.87309
G1 X100.628 Y137.943 E12.89944
G1 X99.648 Y136.921 E12.94653
G1 X99.078 Y136.293 E12.97474
G1 X98.583 Y135.705 E13.0003
G1 X97.858 Y134.774 E13.03955
G1 X97.228 Y133.918 E13.0749
G1 X96.802 Y133.285 E13.10028
G1 X96.09 Y132.137 E13.14521
G1 X95.746 Y131.549 E13.16787
G1 X95.373 Y130.861 E13.1939
G1 X95.18 Y130.478 E13.20816
G1 X94.626 Y129.324 E13.25074
G1 X94.407 Y128.838 E13.26847
G1 X94.155 Y128.234 E13.29023
G1 X93.956 Y127.715 E13.30872
G1 X93.507 Y126.449 E13.3534
G1 X93.29 Y125.786 E13.3766
G1 X93.041 Y124.917 E13.40667
G1 X92.925 Y124.462 E13.42228
G1 X92.731 Y123.618 E13.45109
G1 X92.522 Y122.588 E13.48604
G1 X92.438 Y122.108 E13.50225
G1 X92.295 Y121.112 E13.53572
G1 X92.22 Y120.432 E13.55847
G1 X92.133 Y119.466 E13.59073
G1 X92.1 Y118.949 E13.60796
G1 X92.073 Y118.131 E13.63518
G1 X92.071 Y117.239 E13.66485
G1 X92.091 Y116.284 E13.69662
G1 X92.112 Y115.807 E13.7125
G1 X92.158 Y115.216 E13.73222
G1 X92.287 Y113.976 E13.77368
G1 X92.394 Y113.168 E13.80079
G1 X92.512 Y112.466 E13.82447
G1 X92.717 Y111.462 E13.85855
G1 X92.818 Y111.021 E13.8736
G1 X93.104 Y109.881 E13.91269
G1 X93.295 Y109.215 E13.93573
G1 X93.726 Y107.914 E13.98132
G1 X94.148 Y106.776 E14.02169
G1 X94.431 Y106.092 E14.04631
G1 X94.836 Y105.214 E14.07847
G1 X95.365 Y104.147 E14.11808
G1 X95.75 Y103.43 E14.14515
G1 X95.966 Y103.059 E14.15942
G1 X96.403 Y102.346 E14.18724
G1 X96.867 Y101.616 E14.21601
G1 X97.264 Y101.026 E14.23966
G1 X97.573 Y100.598 E14.25722
G1 X98.044 Y99.981 E14.28304
G1 X98.741 Y99.105 E14.32027
G1 X99.226 Y98.534 E14.34519
G1 X99.894 Y97.812 E14.3779
G1 X100.717 Y96.974 E14.41697
G1 X101.174 Y96.529 E14.43818
G1 X101.621 Y96.124 E14.45825
G1 X102.23 Y95.604 E14.48488
G1 X103.213 Y94.802 E14.52708
G1 X103.521 Y94.564 E14.54002
G1 X103.997 Y94.218 E14.55959
G1 X104.971 Y93.556 E14.59876
G1 X105.804 Y93.02 E14.63171
G1 X106.513 Y92.604 E14.65905
G1 X107.869 Y91.884 E14.71011
G1 X108.72 Y91.462 E14.74171
G1 X109.546 Y91.097 E14.77174
G1 X110.922 Y90.562 E14.82085
G1 X111.606 Y90.311 E14.84508
G1 X112.466 Y90.038 E14.87509
G1 X113.687 Y89.709 E14.91715
G1 X114.602 Y89.481 E14.94851
G1 X115.462 Y89.308 E14.97769
G1 X116.927 Y89.08 E15.027
G1 X117.659 Y88.982 E15.05157
G1 X118.515 Y88.904 E15.08016
G1 X119.765 Y88.843 E15.12178
G1 X120.733 Y88.815 E15.15399
G1 X121.509 Y88.823 E15.1798
G1 X122.332 Y88.868 E15.20721
G1 X123.798 Y88.98 E15.25612
G1 X124.626 Y89.077 E15.28384
G1 X125.387 Y89.201 E15.30949
G1 X126.659 Y89.435 E15.35251
G1 X127.36 Y89.59 E15.37638
G1 X128.57 Y89.911 E15.41802
G1 X129.785 Y90.278 E15.46023
G1 X130.42 Y90.492 E15.48252
G1 X131.171 Y90.779 E15.50926
G1 X131.965 Y91.105 E15.53781
G1 X132.826 Y91.48 E15.56905
G1 X133.52 Y91.815 E15.59468
G1 X134.904 Y92.557 E15.64691
G1 X135.643 Y92.983 E15.67528
G1 X136.301 Y93.396 E15.70112
G1 X137.25 Y94.044 E15.73934
G1 X138.188 Y94.724 E15.77787
G1 X138.782 Y95.194 E15.80306
G1 X139.985 Y96.226 E15.85578
G1 X140.462 Y96.66 E15.87723
G1 X141.103 Y97.297 E15.90729
G1 X141.684 Y97.988 E15.93731
G1 X142.203 Y98.728 E15.96738
G1 X142.653 Y99.51 E15.99738
G1 X143.033 Y100.33 E16.02744
G1 X143.339 Y101.179 E16.05746
G1 X143.568 Y102.053 E16.08751
G1 X143.72 Y102.943 E16.11754
G1 X143.792 Y103.844 E16.1476
G1 X143.784 Y104.747 E16.17764
G1 X143.729 Y105.393 E16.1992
G1 X143.367 Y108.484 E16.30271
G1 X143.15 Y110.987 E16.38627
G1 X143.001 Y113.55 E16.47166
G1 X142.926 Y116.054 E16.55499
G1 X142.922 Y118.623 E16.64043
G1 X142.989 Y121.147 E16.72441
G1 X143.128 Y123.655 E16.80795
G1 X143.343 Y126.24 E16.89423
G1 X143.559 Y128.194 E16.95961
G1 X143.725 Y129.595 E17.00654
G1 X143.792 Y130.495 E17.03655
G1 X143.778 Y131.398 E17.06659
G1 X143.685 Y132.297 E17.09665
G1 X143.512 Y133.183 E17.12668
G1 X143.262 Y134.051 E17.15672
G1 X142.936 Y134.893 E17.18675
G1 X142.537 Y135.703 E17.21678
G1 X142.068 Y136.475 E17.24683
G1 X141.532 Y137.202 E17.27687
