;FLAVOR:Marlin
;TIME:7248
;Filament used: 5.42369m
;Layer height: 0.2
;MINX:67.743
;MINY:81.691
;MINZ:0.2
;MAXX:167.257
;MAXY:153.3
;MAXZ:9
;TARGET_MACHINE.NAME:Creality Ender-3
;Generated with Cura_SteamEngine 5.9.0
M140 S70
M105
M190 S70
M104 S240
M105
M109 S240
M82 ;absolute extrusion mode
; Ender 3 Custom Start G-code
G92 E0 ; Reset Extruder
G28 ; Home all axes
G1 Z2.0 F3000 ; Move Z Axis up little to prevent scratching of Heat Bed
G1 X0.1 Y20 Z0.3 F5000.0 ; Move to start position
G1 X0.1 Y200.0 Z0.3 F1500.0 E15 ; Draw the first line
G1 X0.4 Y200.0 Z0.3 F5000.0 ; Move to side a little
G1 X0.4 Y20 Z0.3 F1500.0 E30 ; Draw the second line
G92 E0 ; Reset Extruder
G1 Z2.0 F3000 ; Move Z Axis up little to prevent scratching of Heat Bed
G1 X5 Y20 Z0.3 F5000.0 ; Move over to prevent blob squish
G92 E0
G92 E0
G1 F2700 E-5
;LAYER_COUNT:45
;LAYER:0
M107
;MESH:Crab03xD-Plate.stl
G0 F6000 X117.5 Y130.093 Z0.2
;TYPE:WALL-INNER
G1 F2700 E0
G1 F900 X117.884 Y130.095 E0.01277
G1 X119.093 Y130.061 E0.053
G1 X120.316 Y129.98 E0.09377
G1 X121.561 Y129.857 E0.13538
G1 X122.726 Y129.7 E0.17447
G1 X123.924 Y129.491 E0.21492
G1 X125.394 Y129.187 E0.26485
G1 X125.755 Y129.215 E0.27689
G1 X126.014 Y129.289 E0.28585
G1 X126.265 Y129.419 E0.29525
G1 X126.566 Y129.684 E0.30859
G1 X126.809 Y130.093 E0.32441
G1 X126.878 Y130.336 E0.33282
G1 X126.9 Y130.592 E0.34136
G1 X126.9 Y134.188 E0.46097
G1 X126.704 Y134.905 E0.48569
G1 X126.515 Y135.048 E0.49357
G1 X132.485 Y135.048 E0.69213
G1 X132.297 Y134.906 E0.69997
G1 X132.1 Y134.188 E0.72473
G1 X132.1 Y127.501 E0.94714
G1 X132.157 Y127.251 E0.95567
G1 X132.264 Y126.989 E0.96508
G1 X132.511 Y126.635 E0.97944
G1 X132.818 Y126.425 E0.99181
G1 X134.081 Y125.721 E1.03991
G1 X135.28 Y124.976 E1.08686
G1 X136.347 Y124.238 E1.13001
G1 X137.044 Y123.719 E1.15891
G1 X137.891 Y123.042 E1.19497
G1 X138.401 Y122.861 E1.21297
G1 X138.796 Y122.876 E1.22612
G1 X139.11 Y122.958 E1.23691
G1 X139.502 Y123.161 E1.2516
G1 X140.282 Y124.062 E1.29123
G1 X140.909 Y124.712 E1.32127
G1 X141.584 Y125.35 E1.35216
G1 X142.269 Y125.935 E1.38212
G1 X142.934 Y126.444 E1.40998
G1 X143.74 Y127.014 E1.44281
G1 X144.521 Y127.502 E1.47344
G1 X145.322 Y127.949 E1.50395
G1 X146.137 Y128.355 E1.53423
G1 X146.969 Y128.719 E1.56444
G1 X147.813 Y129.039 E1.59446
G1 X148.698 Y129.326 E1.62541
G1 X149.567 Y129.563 E1.65536
G1 X150.449 Y129.756 E1.68539
G1 X151.391 Y129.913 E1.71716
G1 X152.26 Y130.017 E1.74627
G1 X153.183 Y130.08 E1.77704
G1 X154.083 Y130.099 E1.80698
G1 X155.006 Y130.069 E1.83769
G1 X155.959 Y129.994 E1.86949
G1 X156.73 Y129.899 E1.89533
G1 X157.707 Y129.724 E1.92834
G1 X158.6 Y129.519 E1.95881
G1 X159.322 Y129.315 E1.98377
G1 X159.331 Y129.322 E1.98414
G1 X160.355 Y128.98 E2.02005
G1 X161.186 Y128.65 E2.04979
G1 X162.036 Y128.268 E2.08079
G1 X162.851 Y127.855 E2.11117
G1 X163.631 Y127.409 E2.14106
G1 X164.412 Y126.911 E2.17187
G1 X165.138 Y126.392 E2.20155
G1 X165.799 Y125.869 E2.22958
G1 X162.448 Y118.259 E2.50615
G1 X162.448 Y118.548 E2.51576
G1 X162.297 Y119.184 E2.5375
G1 X161.965 Y119.609 E2.55544
G1 X161.609 Y119.832 E2.56941
G1 X161.299 Y119.927 E2.58019
G1 X161.048 Y119.948 E2.58857
G1 X146.856 Y119.945 E3.0606
G1 X146.466 Y119.863 E3.07385
G1 X146.132 Y119.687 E3.08641
G1 X145.94 Y119.521 E3.09485
G1 X145.711 Y119.205 E3.10783
G1 X145.548 Y118.766 E3.12341
G1 X145.549 Y104.379 E3.60192
G1 X145.606 Y104.046 E3.61316
G1 X145.75 Y103.686 E3.62605
G1 X146.057 Y103.367 E3.64078
G1 X146.407 Y103.156 E3.65437
G1 X146.84 Y103.048 E3.66921
G1 X161.048 Y103.048 E4.14177
G1 X161.298 Y103.069 E4.15012
G1 X161.609 Y103.163 E4.16092
G1 X161.964 Y103.387 E4.17489
G1 X162.297 Y103.81 E4.19279
G1 X162.449 Y104.448 E4.21461
G1 X162.449 Y104.733 E4.22408
G1 X165.8 Y97.124 E4.50062
G1 X165.138 Y96.603 E4.52864
G1 X164.401 Y96.082 E4.55865
G1 X163.634 Y95.59 E4.58896
G1 X162.834 Y95.132 E4.61962
G1 X162.017 Y94.717 E4.6501
G1 X161.173 Y94.341 E4.68083
G1 X160.317 Y94.009 E4.71137
G1 X159.452 Y93.715 E4.74176
G1 X158.591 Y93.478 E4.77146
G1 X157.687 Y93.269 E4.80232
G1 X156.667 Y93.088 E4.83677
G1 X156.659 Y93.095 E4.83713
G1 X155.869 Y92.994 E4.86362
G1 X154.941 Y92.923 E4.89457
G1 X154.056 Y92.901 E4.92402
G1 X153.126 Y92.919 E4.95495
G1 X152.218 Y92.986 E4.98524
G1 X151.303 Y93.094 E5.01588
G1 X150.385 Y93.254 E5.04687
G1 X149.499 Y93.451 E5.07706
G1 X148.623 Y93.692 E5.10728
G1 X147.737 Y93.987 E5.13834
G1 X146.894 Y94.311 E5.16838
G1 X146.066 Y94.675 E5.19846
G1 X145.241 Y95.092 E5.22921
G1 X144.286 Y95.631 E5.26568
G1 X144.025 Y95.71 E5.27475
G1 X143.618 Y95.741 E5.28832
G1 X143.299 Y95.681 E5.29912
G1 X143.071 Y95.587 E5.30732
G1 X142.766 Y95.374 E5.3197
G1 X142.587 Y95.174 E5.32862
G1 X142.169 Y94.571 E5.35303
G1 X141.588 Y93.782 E5.38562
G1 X141.436 Y93.477 E5.39695
G1 X141.338 Y93.067 E5.41097
G1 X141.407 Y92.631 E5.42565
G1 X141.581 Y92.246 E5.43971
G1 X142.743 Y90.748 E5.50276
G1 X143.632 Y89.492 E5.55394
G1 X144.265 Y88.494 E5.59325
G1 X144.793 Y87.578 E5.62841
G1 X145.161 Y86.86 E5.65525
G1 X145.444 Y86.234 E5.6781
G1 X145.664 Y85.69 E5.69762
G1 X145.817 Y85.241 E5.71339
G1 X145.926 Y84.874 E5.72613
G1 X146.062 Y84.25 E5.74737
G1 X146.1 Y83.74 E5.76438
G1 X146.08 Y83.469 E5.77342
G1 X145.97 Y83.116 E5.78571
G1 X145.89 Y83.034 E5.78952
G1 X145.596 Y82.921 E5.8
G1 X145.238 Y82.894 E5.81194
G1 X144.73 Y82.94 E5.82891
G1 X144.252 Y83.038 E5.84513
G1 X143.834 Y83.154 E5.85956
G1 X143.24 Y83.361 E5.88048
G1 X142.822 Y83.527 E5.89544
G1 X142.231 Y83.785 E5.91689
G1 X141.401 Y84.215 E5.94798
G1 X140.766 Y84.575 E5.97226
G1 X140.12 Y84.968 E5.99741
G1 X139.312 Y85.498 E6.02955
G1 X138.376 Y86.158 E6.06764
G1 X137.46 Y86.854 E6.10591
G1 X136.35 Y87.752 E6.15339
G1 X135.943 Y87.917 E6.168
G1 X135.667 Y87.959 E6.17729
G1 X135.323 Y87.934 E6.18876
G1 X134.977 Y87.817 E6.20091
G1 X133.789 Y87.104 E6.24699
G1 X132.316 Y86.31 E6.30265
G1 X132.303 Y86.317 E6.30314
G1 X131.296 Y85.831 E6.34033
G1 X130.059 Y85.303 E6.38506
G1 X128.809 Y84.827 E6.42955
G1 X127.519 Y84.398 E6.47476
G1 X126.3 Y84.045 E6.51697
G1 X125.205 Y83.773 E6.5545
G1 X124.068 Y83.531 E6.59316
G1 X122.915 Y83.327 E6.63211
G1 X121.755 Y83.162 E6.67108
G1 X120.63 Y83.043 E6.70871
G1 X119.448 Y82.954 E6.74813
G1 X118.275 Y82.908 E6.78717
G1 X117.15 Y82.901 E6.82459
G1 X115.983 Y82.931 E6.86342
G1 X114.923 Y82.993 E6.89874
G1 X113.548 Y83.124 E6.94468
G1 X112.527 Y83.261 E6.97894
G1 X111.368 Y83.451 E7.018
G1 X110.234 Y83.674 E7.05644
G1 X109.199 Y83.914 E7.09178
G1 X107.858 Y84.279 E7.138
G1 X106.892 Y84.588 E7.17174
G1 X105.798 Y84.97 E7.21028
G1 X104.702 Y85.399 E7.24942
G1 X103.649 Y85.855 E7.28759
G1 X102.623 Y86.347 E7.32543
G1 X101.594 Y86.892 E7.36416
G1 X100.871 Y87.303 E7.39182
G1 X100.048 Y87.802 E7.42384
G1 X99.731 Y87.921 E7.4351
G1 X99.317 Y87.977 E7.44899
G1 X98.89 Y87.864 E7.46368
G1 X98.525 Y87.654 E7.47769
G1 X97.134 Y86.542 E7.53692
G1 X95.864 Y85.617 E7.58918
G1 X94.764 Y84.898 E7.63289
G1 X93.831 Y84.347 E7.66893
G1 X92.997 Y83.905 E7.70032
G1 X92.22 Y83.538 E7.7289
G1 X92.212 Y83.544 E7.72923
G1 X91.781 Y83.37 E7.74469
G1 X91.375 Y83.225 E7.75903
G1 X90.974 Y83.1 E7.773
G1 X90.68 Y83.025 E7.78309
G1 X90.199 Y82.935 E7.79937
G1 X89.705 Y82.888 E7.81587
G1 X89.274 Y82.954 E7.83038
G1 X89.04 Y83.091 E7.83939
G1 X88.938 Y83.32 E7.84773
G1 X88.901 Y83.753 E7.86219
G1 X88.932 Y84.172 E7.87616
G1 X88.983 Y84.48 E7.88654
G1 X89.076 Y84.891 E7.90056
G1 X89.258 Y85.474 E7.92087
G1 X89.352 Y85.745 E7.93041
G1 X89.503 Y86.121 E7.94389
G1 X89.702 Y86.573 E7.96032
G1 X89.917 Y87.027 E7.97702
G1 X90.243 Y87.647 E8.00032
G1 X90.583 Y88.246 E8.02323
G1 X90.985 Y88.905 E8.0489
G1 X91.428 Y89.583 E8.07584
G1 X91.973 Y90.366 E8.10757
G1 X92.627 Y91.247 E8.14407
G1 X93.4 Y92.22 E8.1854
G1 X93.577 Y92.552 E8.19791
G1 X93.639 Y92.962 E8.2117
G1 X93.628 Y93.198 E8.21956
G1 X93.542 Y93.529 E8.23094
G1 X93.435 Y93.743 E8.23889
G1 X92.944 Y94.408 E8.26639
G1 X92.366 Y95.234 E8.29992
G1 X92.192 Y95.411 E8.30817
G1 X91.825 Y95.636 E8.32249
G1 X91.554 Y95.718 E8.33191
G1 X91.096 Y95.747 E8.34717
G1 X90.717 Y95.632 E8.36034
G1 X89.757 Y95.092 E8.39698
G1 X88.953 Y94.687 E8.42692
G1 X88.101 Y94.311 E8.4579
G1 X87.259 Y93.987 E8.4879
G1 X86.396 Y93.7 E8.51815
G1 X85.522 Y93.459 E8.54831
G1 X84.633 Y93.258 E8.57862
G1 X83.695 Y93.094 E8.61029
G1 X82.802 Y92.987 E8.64021
G1 X81.871 Y92.919 E8.67125
G1 X80.987 Y92.901 E8.70066
G1 X80.056 Y92.923 E8.73164
G1 X79.15 Y92.994 E8.76186
G1 X78.223 Y93.11 E8.79293
G1 X77.32 Y93.266 E8.82341
G1 X76.43 Y93.47 E8.85378
G1 X75.554 Y93.715 E8.88404
G1 X74.692 Y94.002 E8.91425
G1 X73.824 Y94.341 E8.94525
G1 X72.979 Y94.717 E8.97601
G1 X72.162 Y95.133 E9.0065
G1 X71.382 Y95.579 E9.03639
G1 X70.594 Y96.082 E9.06748
G1 X69.859 Y96.602 E9.09743
G1 X69.199 Y97.124 E9.12541
G1 X72.548 Y104.728 E9.40177
G1 X72.548 Y104.448 E9.41108
G1 X72.7 Y103.812 E9.43283
G1 X73.032 Y103.388 E9.45074
G1 X73.388 Y103.164 E9.46473
G1 X73.697 Y103.07 E9.47547
G1 X73.948 Y103.048 E9.48385
G1 X88.155 Y103.048 E9.95638
G1 X88.521 Y103.114 E9.96875
G1 X88.94 Y103.368 E9.98504
G1 X89.164 Y103.602 E9.99582
G1 X89.295 Y103.809 E10.00397
G1 X89.419 Y104.16 E10.01635
G1 X89.447 Y104.379 E10.02369
G1 X89.448 Y118.65 E10.49835
G1 X89.365 Y119.025 E10.51112
G1 X89.16 Y119.4 E10.52534
G1 X89.005 Y119.571 E10.53301
G1 X88.686 Y119.795 E10.54598
G1 X88.255 Y119.946 E10.56117
G1 X73.948 Y119.948 E11.03702
G1 X73.698 Y119.926 E11.04537
G1 X73.388 Y119.832 E11.05614
G1 X73.032 Y119.608 E11.07013
G1 X72.7 Y119.185 E11.08801
G1 X72.548 Y118.548 E11.1098
G1 X72.548 Y118.268 E11.11911
G1 X69.2 Y125.871 E11.39542
G1 X69.856 Y126.39 E11.42324
G1 X70.568 Y126.895 E11.45227
G1 X71.372 Y127.411 E11.48405
G1 X72.146 Y127.855 E11.51372
G1 X72.96 Y128.268 E11.54408
G1 X73.81 Y128.65 E11.57508
G1 X74.641 Y128.98 E11.60482
G1 X75.665 Y129.322 E11.64073
G1 X75.674 Y129.315 E11.6411
G1 X76.372 Y129.511 E11.66522
G1 X77.272 Y129.72 E11.69595
G1 X78.29 Y129.905 E11.73036
G1 X78.299 Y129.897 E11.73076
G1 X79.042 Y129.995 E11.75569
G1 X79.991 Y130.069 E11.78735
G1 X80.89 Y130.099 E11.81727
G1 X81.814 Y130.081 E11.848
G1 X82.74 Y130.017 E11.87888
G1 X83.632 Y129.909 E11.90876
G1 X84.546 Y129.756 E11.93958
G1 X85.429 Y129.564 E11.96964
G1 X86.299 Y129.326 E11.99964
G1 X87.188 Y129.038 E12.03072
G1 X88.028 Y128.72 E12.06059
G1 X88.835 Y128.362 E12.08996
G1 X89.68 Y127.948 E12.12125
G1 X90.466 Y127.507 E12.15123
G1 X91.261 Y127.01 E12.18241
G1 X92.064 Y126.452 E12.21494
G1 X92.709 Y125.948 E12.24216
G1 X93.406 Y125.352 E12.27266
G1 X94.092 Y124.711 E12.30389
G1 X94.722 Y124.055 E12.33414
G1 X95.497 Y123.163 E12.37344
G1 X95.889 Y122.958 E12.38816
G1 X96.219 Y122.875 E12.39947
G1 X96.501 Y122.867 E12.40886
G1 X96.911 Y122.961 E12.42285
G1 X97.17 Y123.097 E12.43258
G1 X98.29 Y123.972 E12.47985
G1 X99.336 Y124.722 E12.52266
G1 X100.425 Y125.425 E12.56577
G1 X101.252 Y125.914 E12.59772
G1 X102.247 Y126.459 E12.63546
G1 X102.532 Y126.677 E12.64739
G1 X102.736 Y126.985 E12.65968
G1 X102.843 Y127.247 E12.66909
G1 X102.9 Y127.644 E12.68243
G1 X102.9 Y134.188 E12.90009
G1 X102.704 Y134.905 E12.92481
G1 X102.515 Y135.048 E12.93269
G1 X108.485 Y135.048 E13.13125
G1 X108.297 Y134.906 E13.13909
G1 X108.1 Y134.188 E13.16385
G1 X108.1 Y130.592 E13.28346
G1 X108.123 Y130.336 E13.29201
G1 X108.192 Y130.093 E13.30041
G1 X108.298 Y129.873 E13.30853
G1 X108.587 Y129.529 E13.32347
G1 X108.87 Y129.341 E13.33477
G1 X109.087 Y129.254 E13.34255
G1 X109.449 Y129.192 E13.35477
G1 X109.748 Y129.214 E13.36474
G1 X111.394 Y129.553 E13.42063
G1 X113.003 Y129.804 E13.47479
G1 X114.284 Y129.949 E13.51767
G1 X115.505 Y130.042 E13.5584
G1 X116.68 Y130.088 E13.59751
G1 X117.5 Y130.093 E13.62479
G0 F6000 X117.5 Y130.493
G1 F900 X117.888 Y130.495 E13.63769
G1 X119.112 Y130.46 E13.67842
G1 X120.349 Y130.379 E13.71965
G1 X121.607 Y130.254 E13.7617
G1 X122.787 Y130.095 E13.8013
G1 X123.997 Y129.884 E13.84215
G1 X125.469 Y129.58 E13.89214
G1 X125.795 Y129.636 E13.90314
G1 X126.152 Y129.834 E13.91672
G1 X126.359 Y130.078 E13.92736
G1 X126.5 Y130.451 E13.94063
G1 X126.5 Y134.188 E14.06492
G1 X126.36 Y134.7 E14.08257
G1 X125.77 Y135.151 E14.10727
G1 X125.419 Y135.25 E14.1194
G1 X125.155 Y135.337 E14.12865
G1 X124.871 Y135.448 E14.13879
G1 X134.118 Y135.447 E14.44635
G1 X133.826 Y135.332 E14.45679
G1 X133.579 Y135.248 E14.46546
G1 X133.233 Y135.152 E14.47741
G1 X132.641 Y134.701 E14.50216
G1 X132.5 Y134.188 E14.51985
G1 X132.5 Y127.648 E14.73737
G1 X132.541 Y127.364 E14.74692
G1 X132.753 Y126.982 E14.76145
G1 X132.922 Y126.824 E14.76914
G1 X134.284 Y126.065 E14.821
G1 X135.499 Y125.311 E14.86856
G1 X136.58 Y124.563 E14.91229
G1 X137.288 Y124.036 E14.94164
G1 X138.094 Y123.391 E14.97598
G1 X138.389 Y123.287 E14.98638
G1 X138.741 Y123.273 E14.9981
G1 X139.161 Y123.433 E15.01305
G1 X139.361 Y123.609 E15.02191
G1 X139.987 Y124.332 E15.05372
G1 X140.628 Y124.996 E15.08441
G1 X141.317 Y125.648 E15.11596
G1 X142.018 Y126.246 E15.14661
G1 X142.697 Y126.766 E15.17505
G1 X143.519 Y127.347 E15.20853
G1 X144.318 Y127.847 E15.23988
G1 X145.135 Y128.303 E15.271
G1 X145.968 Y128.717 E15.30194
G1 X146.818 Y129.089 E15.3328
G1 X147.68 Y129.416 E15.36346
G1 X148.583 Y129.709 E15.39504
G1 X149.471 Y129.952 E15.42566
G1 X150.374 Y130.149 E15.4564
G1 X151.334 Y130.309 E15.48877
G1 X152.222 Y130.416 E15.51852
G1 X153.165 Y130.48 E15.54996
G1 X154.086 Y130.499 E15.5806
G1 X155.028 Y130.469 E15.61194
G1 X155.999 Y130.392 E15.64434
G1 X156.79 Y130.294 E15.67085
G1 X157.787 Y130.116 E15.70453
G1 X158.7 Y129.906 E15.73569
G1 X159.426 Y129.701 E15.76078
G1 X159.435 Y129.709 E15.76119
G1 X160.493 Y129.356 E15.79828
G1 X161.342 Y129.018 E15.82867
G1 X162.208 Y128.629 E15.86025
G1 X163.041 Y128.207 E15.89131
G1 X163.838 Y127.751 E15.92185
G1 X164.636 Y127.243 E15.95331
G1 X165.379 Y126.712 E15.98369
G1 X166.29 Y125.99 E16.02235
G1 X162.048 Y116.358 E16.3724
G1 X162.048 Y118.548 E16.44524
G1 X161.941 Y119.003 E16.46079
G1 X161.703 Y119.306 E16.4736
G1 X161.449 Y119.465 E16.48357
G1 X161.179 Y119.548 E16.49297
G1 X146.882 Y119.546 E16.96849
G1 X146.604 Y119.488 E16.97793
G1 X146.25 Y119.265 E16.99185
G1 X146.064 Y119.017 E17.00216
G1 X145.953 Y118.652 E17.01485
G1 X145.95 Y104.379 E17.48957
G1 X145.99 Y104.16 E17.49697
G1 X146.151 Y103.843 E17.5088
G1 X146.312 Y103.676 E17.51651
G1 X146.561 Y103.525 E17.5262
G1 X146.843 Y103.453 E17.53588
G1 X161.177 Y103.448 E18.01263
G1 X161.449 Y103.53 E18.02208
G1 X161.703 Y103.69 E18.03206
G1 X161.941 Y103.992 E18.04485
G1 X162.049 Y104.448 E18.06044
G1 X162.049 Y106.634 E18.13315
G1 X166.291 Y97.002 E18.4832
G1 X165.377 Y96.282 E18.5219
G1 X164.625 Y95.75 E18.55254
G1 X163.841 Y95.248 E18.5835
G1 X163.024 Y94.78 E18.61482
G1 X162.189 Y94.356 E18.64596
G1 X161.327 Y93.972 E18.67735
G1 X160.454 Y93.633 E18.7085
G1 X159.57 Y93.333 E18.73955
G1 X158.69 Y93.09 E18.76991
G1 X157.767 Y92.877 E18.80142
G1 X156.714 Y92.69 E18.83699
G1 X156.705 Y92.698 E18.83739
G1 X155.91 Y92.596 E18.86405
G1 X154.961 Y92.524 E18.8957
G1 X154.057 Y92.501 E18.92578
G1 X153.107 Y92.52 E18.95738
G1 X152.18 Y92.588 E18.9883
G1 X151.245 Y92.698 E19.01961
G1 X150.307 Y92.862 E19.05128
G1 X149.402 Y93.063 E19.08211
G1 X148.507 Y93.31 E19.113
G1 X147.602 Y93.61 E19.14471
G1 X146.742 Y93.941 E19.17536
G1 X145.895 Y94.313 E19.20612
G1 X145.052 Y94.739 E19.23754
G1 X144.103 Y95.267 E19.27366
G1 X143.784 Y95.342 E19.28456
G1 X143.523 Y95.326 E19.29326
G1 X143.194 Y95.198 E19.305
G1 X142.97 Y95.023 E19.31445
G1 X142.494 Y94.339 E19.34217
G1 X141.902 Y93.53 E19.37551
G1 X141.775 Y93.204 E19.38715
G1 X141.766 Y92.862 E19.39853
G1 X141.861 Y92.535 E19.40985
G1 X143.065 Y90.987 E19.47508
G1 X143.965 Y89.714 E19.52693
G1 X144.608 Y88.702 E19.56681
G1 X145.145 Y87.769 E19.60261
G1 X145.522 Y87.034 E19.63009
G1 X145.812 Y86.391 E19.65355
G1 X146.038 Y85.83 E19.67367
G1 X146.199 Y85.363 E19.6901
G1 X146.313 Y84.977 E19.70348
G1 X146.459 Y84.308 E19.72626
G1 X146.501 Y83.74 E19.7452
G1 X146.478 Y83.421 E19.75584
G1 X146.402 Y83.096 E19.76694
G1 X146.258 Y82.831 E19.77697
G1 X146.098 Y82.69 E19.78406
G1 X145.668 Y82.525 E19.79938
G1 X145.23 Y82.492 E19.81399
