;FLAVOR:Marlin
;TIME:8330
;Filament used: 5.66868m
;Layer height: 0.2
;MINX:61.563
;MINY:77.751
;MINZ:0.2
;MAXX:173.437
;MAXY:157.249
;MAXZ:11.4
;TARGET_MACHINE.NAME:Creality Ender-3
;Generated with Cura_SteamEngine 5.9.0
M140 S50
M105
M190 S50
M104 S200
M105
M109 S200
M82 ;absolute extrusion mode
; Ender 3 Custom Start G-code
G92 E0 ; Reset Extruder
G28 ; Home all axes
G1 Z2.0 F3000 ; Move Z Axis up little to prevent scratching of Heat Bed
G1 X0.1 Y20 Z0.3 F5000.0 ; Move to start position
G1 X0.1 Y200.0 Z0.3 F1500.0 E15 ; Draw the first line
G1 X0.4 Y200.0 Z0.3 F5000.0 ; Move to side a little
G1 X0.4 Y20 Z0.3 F1500.0 E30 ; Draw the second line
G92 E0 ; Reset Extruder
G1 Z2.0 F3000 ; Move Z Axis up little to prevent scratching of Heat Bed
G1 X5 Y20 Z0.3 F5000.0 ; Move over to prevent blob squish
G92 E0
G92 E0
G1 F2700 E-5
;LAYER_COUNT:57
;LAYER:0
M107
G0 F6000 X66.542 Y145.529 Z0.2
;TYPE:SKIRT
G1 F2700 E0
G1 F1200 X65.777 Y144.925 E0.03242
G1 X65.068 Y144.256 E0.06484
G1 X64.427 Y143.534 E0.09695
G1 X63.872 Y142.801 E0.12753
G1 X63.32 Y141.972 E0.16066
G1 X62.854 Y141.118 E0.19302
G1 X62.466 Y140.23 E0.22525
G1 X62.132 Y139.259 E0.2594
G1 X61.87 Y138.32 E0.29182
G1 X61.691 Y137.352 E0.32457
G1 X61.589 Y136.103 E0.36625
G1 X61.563 Y134.72 E0.41225
G1 X61.564 Y90.595 E1.87986
G1 X61.578 Y89.794 E1.9065
G1 X61.638 Y88.823 E1.93886
G1 X61.772 Y87.93 E1.96889
G1 X62.035 Y86.856 E2.00567
G1 X62.205 Y86.284 E2.02552
G1 X62.528 Y85.366 E2.05788
G1 X62.93 Y84.48 E2.09024
G1 X63.388 Y83.666 E2.12131
G1 X63.794 Y83.058 E2.14563
G1 X64.036 Y82.723 E2.15937
G1 X64.64 Y81.96 E2.19174
G1 X65.309 Y81.252 E2.22414
G1 X66.006 Y80.632 E2.25516
G1 X66.74 Y80.073 E2.28585
G1 X67.549 Y79.532 E2.31822
G1 X68.416 Y79.057 E2.3511
G1 X69.645 Y78.542 E2.39542
G1 X70.05 Y78.402 E2.40967
G1 X70.98 Y78.128 E2.44192
G1 X71.804 Y77.956 E2.46992
G1 X72.816 Y77.818 E2.50389
G1 X73.602 Y77.773 E2.53007
G1 X74.828 Y77.751 E2.57086
G1 X160.588 Y77.752 E5.42324
G1 X161.402 Y77.766 E5.45032
G1 X162.374 Y77.826 E5.48271
G1 X163.267 Y77.959 E5.51274
G1 X164.353 Y78.226 E5.54994
G1 X164.898 Y78.389 E5.56886
G1 X165.783 Y78.699 E5.60005
G1 X166.703 Y79.116 E5.63364
G1 X167.541 Y79.59 E5.66566
G1 X168.086 Y79.953 E5.68744
G1 X168.447 Y80.211 E5.7022
G1 X169.158 Y80.768 E5.73224
G1 X169.919 Y81.482 E5.76695
G1 X170.561 Y82.203 E5.79906
G1 X171.12 Y82.937 E5.82975
G1 X171.661 Y83.746 E5.86212
G1 X172.131 Y84.599 E5.89451
G1 X172.497 Y85.424 E5.92453
G1 X172.808 Y86.306 E5.95563
G1 X173.076 Y87.236 E5.98782
G1 X173.241 Y88.048 E6.01538
G1 X173.375 Y89.059 E6.0493
G1 X173.415 Y89.793 E6.07375
G1 X173.437 Y91.029 E6.11487
G1 X173.435 Y111.98 E6.8117
G1 X173.424 Y112.675 E6.83482
G1 X173.37 Y113.607 E6.86587
G1 X173.286 Y114.247 E6.88734
G1 X173.219 Y114.66 E6.90125
G1 X173.035 Y115.544 E6.93129
G1 X172.816 Y116.302 E6.95753
G1 X172.712 Y116.613 E6.96844
G1 X172.383 Y117.484 E6.9994
G1 X172.164 Y117.964 E7.01695
G1 X171.031 Y120.29 E7.103
G1 X170.004 Y122.556 E7.18575
G1 X169.02 Y124.904 E7.27043
G1 X168.118 Y127.237 E7.35362
G1 X167.265 Y129.647 E7.43865
G1 X166.504 Y132.006 E7.52109
G1 X165.803 Y134.408 E7.60432
G1 X165.161 Y136.866 E7.68881
G1 X164.587 Y139.352 E7.77367
G1 X164.086 Y141.832 E7.85782
G1 X163.927 Y142.664 E7.886
G1 X163.575 Y144.021 E7.93262
G1 X163.464 Y144.356 E7.94436
G1 X163.117 Y145.266 E7.97675
G1 X162.683 Y146.156 E8.00969
G1 X161.969 Y147.298 E8.05448
G1 X161.718 Y147.646 E8.06875
G1 X161.115 Y148.41 E8.10113
G1 X160.446 Y149.119 E8.13355
G1 X159.749 Y149.739 E8.16458
G1 X159.01 Y150.302 E8.19548
G1 X158.201 Y150.843 E8.22784
G1 X157.334 Y151.318 E8.26073
G1 X156.105 Y151.833 E8.30505
G1 X155.699 Y151.973 E8.31933
G1 X154.801 Y152.238 E8.35047
G1 X153.977 Y152.411 E8.37847
G1 X151.946 Y152.755 E8.44699
G1 X149.389 Y153.232 E8.5335
G1 X146.925 Y153.764 E8.61734
G1 X144.531 Y154.352 E8.69933
G1 X142.062 Y155.031 E8.7845
G1 X139.666 Y155.767 E8.86787
G1 X137.114 Y156.625 E8.95742
G1 X136.187 Y156.891 E8.98949
G1 X135.453 Y157.042 E9.01442
G1 X134.443 Y157.181 E9.04833
G1 X133.648 Y157.227 E9.07481
G1 X132.423 Y157.249 E9.11556
G1 X111.423 Y157.247 E9.81403
G1 X110.755 Y157.236 E9.83625
G1 X109.795 Y157.179 E9.86823
G1 X109.19 Y157.098 E9.88853
G1 X108.777 Y157.031 E9.90245
G1 X107.893 Y156.847 E9.93248
G1 X107.091 Y156.613 E9.96027
G1 X105.547 Y156.099 E10.01439
G1 X103.042 Y155.297 E10.10188
G1 X100.658 Y154.61 E10.1844
G1 X98.201 Y153.974 E10.26881
G1 X95.721 Y153.408 E10.35342
G1 X93.272 Y152.921 E10.43646
G1 X90.326 Y152.421 E10.53585
G1 X89.138 Y152.145 E10.57642
G1 X88.198 Y151.859 E10.60909
G1 X87.061 Y151.478 E10.64898
G1 X84.541 Y150.672 E10.73698
G1 X82.157 Y149.985 E10.8195
G1 X79.714 Y149.353 E10.90342
G1 X77.223 Y148.783 E10.98842
G1 X74.769 Y148.296 E11.07163
G1 X71.829 Y147.796 E11.17082
G1 X70.552 Y147.496 E11.21445
G1 X70.095 Y147.359 E11.23032
G1 X69.242 Y147.061 E11.26037
G1 X68.29 Y146.629 E11.29514
G1 X67.453 Y146.156 E11.32712
G1 X66.893 Y145.781 E11.34953
G1 X66.542 Y145.529 E11.3639
G0 F6000 X67.675 Y145.823
G1 F1200 X67.126 Y145.456 E11.38587
G1 X66.789 Y145.215 E11.39965
G1 X66.051 Y144.634 E11.43089
G1 X65.367 Y143.99 E11.46213
G1 X64.746 Y143.292 E11.49321
G1 X64.205 Y142.579 E11.52298
G1 X63.671 Y141.78 E11.55494
G1 X63.22 Y140.957 E11.58615
G1 X62.844 Y140.1 E11.61728
G1 X62.517 Y139.151 E11.65066
G1 X62.263 Y138.247 E11.6819
G1 X62.09 Y137.319 E11.71329
G1 X61.988 Y136.07 E11.75497
G1 X61.963 Y134.72 E11.79988
G1 X61.964 Y90.602 E13.26725
G1 X61.977 Y89.818 E13.29333
G1 X62.034 Y88.882 E13.32452
G1 X62.168 Y87.989 E13.35456
G1 X62.418 Y86.97 E13.38945
G1 X62.583 Y86.416 E13.40868
G1 X62.893 Y85.531 E13.43987
G1 X63.279 Y84.676 E13.47107
G1 X63.721 Y83.888 E13.50112
G1 X64.119 Y83.292 E13.52496
G1 X64.35 Y82.971 E13.53811
G1 X64.931 Y82.234 E13.56932
G1 X65.575 Y81.551 E13.60055
G1 X66.249 Y80.95 E13.63058
G1 X66.963 Y80.405 E13.66046
G1 X67.742 Y79.882 E13.69166
G1 X68.571 Y79.426 E13.72313
G1 X69.8 Y78.911 E13.76745
G1 X70.164 Y78.786 E13.78025
G1 X71.062 Y78.52 E13.8114
G1 X71.886 Y78.348 E13.8394
G1 X72.839 Y78.217 E13.8714
G1 X73.609 Y78.173 E13.89705
G1 X74.828 Y78.151 E13.9376
G1 X160.581 Y78.152 E16.78976
G1 X161.378 Y78.165 E16.81627
G1 X162.315 Y78.222 E16.84749
G1 X163.208 Y78.355 E16.87752
G1 X164.238 Y78.609 E16.9128
G1 X164.766 Y78.767 E16.93113
G1 X165.651 Y79.077 E16.96232
G1 X166.506 Y79.464 E16.99354
G1 X167.319 Y79.923 E17.02459
G1 X167.864 Y80.286 E17.04637
G1 X168.2 Y80.526 E17.0601
G1 X168.911 Y81.083 E17.09014
G1 X169.621 Y81.748 E17.1225
G1 X170.243 Y82.445 E17.15357
G1 X170.788 Y83.16 E17.18347
G1 X171.311 Y83.939 E17.21468
G1 X171.765 Y84.761 E17.24591
G1 X172.131 Y85.586 E17.27593
G1 X172.424 Y86.417 E17.30524
G1 X172.684 Y87.316 E17.33636
G1 X172.849 Y88.128 E17.36392
G1 X172.976 Y89.081 E17.3959
G1 X173.015 Y89.8 E17.41985
G1 X173.037 Y91.029 E17.46073
G1 X173.035 Y111.974 E18.15736
G1 X173.025 Y112.652 E18.17992
G1 X172.971 Y113.584 E18.21097
G1 X172.891 Y114.183 E18.23107
G1 X172.827 Y114.578 E18.24438
G1 X172.643 Y115.462 E18.27441
G1 X172.436 Y116.176 E18.29913
G1 X172.338 Y116.472 E18.30951
G1 X172.009 Y117.343 E18.34047
G1 X171.804 Y117.789 E18.3568
G1 X170.671 Y120.115 E18.44285
G1 X169.635 Y122.401 E18.52633
G1 X168.651 Y124.749 E18.611
G1 X167.745 Y127.093 E18.69459
G1 X166.888 Y129.513 E18.77997
G1 X166.123 Y131.883 E18.8628
G1 X165.419 Y134.296 E18.94641
G1 X164.774 Y136.765 E19.03128
G1 X164.197 Y139.262 E19.11652
G1 X163.694 Y141.753 E19.20104
G1 X163.534 Y142.589 E19.22935
G1 X163.195 Y143.896 E19.27426
G1 X163.09 Y144.214 E19.2854
G1 X162.757 Y145.092 E19.31663
G1 X162.344 Y145.944 E19.34813
G1 X161.644 Y147.065 E19.39208
G1 X161.404 Y147.399 E19.40576
G1 X160.824 Y148.136 E19.43696
G1 X160.18 Y148.82 E19.4682
G1 X159.506 Y149.421 E19.49824
G1 X158.787 Y149.97 E19.52833
G1 X158.008 Y150.493 E19.55953
G1 X157.179 Y150.949 E19.591
G1 X155.95 Y151.464 E19.63532
G1 X155.586 Y151.589 E19.64812
G1 X154.688 Y151.854 E19.67926
G1 X153.91 Y152.017 E19.7057
G1 X151.873 Y152.362 E19.77442
G1 X149.305 Y152.841 E19.8613
G1 X146.841 Y153.373 E19.94514
G1 X144.425 Y153.966 E20.02789
G1 X141.956 Y154.646 E20.11306
G1 X139.538 Y155.388 E20.19719
G1 X137.004 Y156.241 E20.28612
G1 X136.106 Y156.499 E20.31719
G1 X135.372 Y156.65 E20.34212
G1 X134.42 Y156.782 E20.37408
G1 X133.641 Y156.827 E20.40003
G1 X132.423 Y156.849 E20.44055
G1 X111.429 Y156.847 E21.13882
G1 X110.779 Y156.837 E21.16044
G1 X109.848 Y156.782 E21.19146
G1 X109.254 Y156.703 E21.21139
G1 X108.859 Y156.639 E21.2247
G1 X107.975 Y156.455 E21.25473
G1 X107.217 Y156.233 E21.281
G1 X105.673 Y155.719 E21.33512
G1 X103.164 Y154.916 E21.42274
G1 X100.764 Y154.224 E21.50582
G1 X98.29 Y153.584 E21.59081
G1 X95.81 Y153.018 E21.67542
G1 X93.345 Y152.528 E21.75901
G1 X90.417 Y152.031 E21.85779
G1 X89.229 Y151.755 E21.89835
G1 X88.325 Y151.48 E21.92978
G1 X87.183 Y151.097 E21.96984
G1 X84.663 Y150.291 E22.05784
G1 X82.263 Y149.599 E22.14092
G1 X79.803 Y148.963 E22.22543
G1 X77.312 Y148.393 E22.31042
G1 X74.842 Y147.903 E22.39417
G1 X71.92 Y147.407 E22.49275
G1 X70.667 Y147.113 E22.53556
G1 X70.227 Y146.981 E22.55084
G1 X69.374 Y146.683 E22.58089
G1 X68.487 Y146.281 E22.61328
G1 X67.675 Y145.823 E22.64429
G0 F6000 X68.683 Y145.933
G1 F1200 X67.897 Y145.49 E22.67429
G1 X67.359 Y145.131 E22.69581
G1 X67.036 Y144.9 E22.70901
G1 X66.325 Y144.342 E22.73907
G1 X65.666 Y143.724 E22.76912
G1 X65.065 Y143.05 E22.79916
G1 X64.524 Y142.337 E22.82893
G1 X64.021 Y141.587 E22.85896
G1 X63.586 Y140.796 E22.88899
G1 X63.222 Y139.969 E22.91904
G1 X62.902 Y139.042 E22.95166
G1 X62.656 Y138.173 E22.9817
G1 X62.489 Y137.286 E23.01172
G1 X62.387 Y136.037 E23.0534
G1 X62.363 Y134.72 E23.09721
G1 X62.364 Y90.608 E24.56438
G1 X62.376 Y89.842 E24.58986
G1 X62.43 Y88.941 E24.61988
G1 X62.564 Y88.048 E24.64991
G1 X62.801 Y87.084 E24.68293
G1 X62.961 Y86.548 E24.70154
G1 X63.258 Y85.695 E24.73158
G1 X63.628 Y84.872 E24.76159
G1 X64.07 Y84.084 E24.79164
G1 X64.444 Y83.525 E24.81401
G1 X64.664 Y83.218 E24.82657
G1 X65.222 Y82.508 E24.85661
G1 X65.841 Y81.85 E24.88665
G1 X66.515 Y81.249 E24.91669
G1 X67.187 Y80.737 E24.94479
G1 X67.936 Y80.232 E24.97483
G1 X68.726 Y79.795 E25.00486
G1 X69.931 Y79.289 E25.04833
G1 X70.278 Y79.169 E25.06054
G1 X71.144 Y78.912 E25.09059
G1 X71.968 Y78.74 E25.11858
G1 X72.862 Y78.616 E25.1486
G1 X73.616 Y78.573 E25.17372
G1 X74.828 Y78.551 E25.21404
G1 X160.575 Y78.552 E28.066
G1 X161.354 Y78.564 E28.09191
G1 X162.256 Y78.618 E28.12196
G1 X163.149 Y78.751 E28.15199
G1 X164.123 Y78.992 E28.18536
G1 X164.634 Y79.145 E28.20311
G1 X165.487 Y79.442 E28.23315
G1 X166.31 Y79.813 E28.26317
G1 X167.097 Y80.256 E28.29321
G1 X167.632 Y80.612 E28.31458
G1 X167.953 Y80.841 E28.3277
G1 X168.664 Y81.398 E28.35774
G1 X169.323 Y82.015 E28.38777
G1 X169.925 Y82.688 E28.4178
G1 X170.456 Y83.384 E28.44692
G1 X170.961 Y84.133 E28.47696
G1 X171.399 Y84.923 E28.507
G1 X171.765 Y85.748 E28.53702
G1 X172.04 Y86.529 E28.56456
G1 X172.292 Y87.396 E28.59459
G1 X172.457 Y88.208 E28.62215
G1 X172.577 Y89.103 E28.65219
G1 X172.615 Y89.807 E28.67563
G1 X172.637 Y91.029 E28.71629
G1 X172.635 Y111.969 E29.41275
G1 X172.626 Y112.629 E29.43471
G1 X172.574 Y113.531 E29.46476
G1 X172.496 Y114.119 E29.48448
G1 X172.435 Y114.496 E29.49719
G1 X172.251 Y115.38 E29.52722
G1 X172.056 Y116.051 E29.55046
G1 X171.964 Y116.331 E29.56026
G1 X171.645 Y117.176 E29.5903
G1 X171.444 Y117.614 E29.60633
G1 X170.311 Y119.94 E29.69239
G1 X169.266 Y122.246 E29.77659
G1 X168.282 Y124.594 E29.86127
G1 X167.372 Y126.949 E29.94524
G1 X166.511 Y129.379 E30.03098
G1 X165.742 Y131.76 E30.1142
G1 X165.035 Y134.184 E30.19819
G1 X164.387 Y136.664 E30.28344
G1 X163.807 Y139.172 E30.36906
G1 X163.302 Y141.674 E30.45395
G1 X163.141 Y142.514 E30.4824
G1 X162.815 Y143.771 E30.52559
G1 X162.716 Y144.073 E30.53616
G1 X162.397 Y144.918 E30.5662
G1 X162.005 Y145.732 E30.59625
G1 X161.319 Y146.832 E30.63937
G1 X161.09 Y147.152 E30.65246
G1 X160.532 Y147.862 E30.68249
G1 X159.914 Y148.521 E30.71254
G1 X159.24 Y149.122 E30.74258
G1 X158.563 Y149.638 E30.77089
G1 X157.814 Y150.143 E30.80093
G1 X157.024 Y150.58 E30.83096
G1 X155.819 Y151.086 E30.87443
G1 X155.472 Y151.206 E30.88664
G1 X154.606 Y151.463 E30.91669
G1 X153.843 Y151.623 E30.94262
G1 X151.8 Y151.969 E31.01153
G1 X149.221 Y152.45 E31.09879
G1 X146.757 Y152.982 E31.18263
G1 X144.319 Y153.58 E31.26612
G1 X141.85 Y154.261 E31.35131
G1 X139.41 Y155.009 E31.43619
G1 X136.893 Y155.857 E31.52453
G1 X136.025 Y156.107 E31.55458
G1 X135.291 Y156.258 E31.5795
G1 X134.397 Y156.383 E31.60952
G1 X133.634 Y156.427 E31.63494
G1 X132.423 Y156.449 E31.67523
G1 X111.435 Y156.447 E32.37329
G1 X110.802 Y156.438 E32.39435
G1 X109.9 Y156.385 E32.4244
G1 X109.318 Y156.308 E32.44393
G1 X108.941 Y156.247 E32.45663
G1 X108.057 Y156.063 E32.48666
G1 X107.343 Y155.854 E32.5114
G1 X105.795 Y155.338 E32.56568
G1 X103.286 Y154.535 E32.6533
G1 X100.87 Y153.838 E32.73693
G1 X98.379 Y153.194 E32.8225
G1 X95.899 Y152.628 E32.90711
G1 X93.418 Y152.135 E32.99124
G1 X90.508 Y151.641 E33.08941
G1 X89.32 Y151.365 E33.12998
G1 X88.452 Y151.101 E33.16015
G1 X87.305 Y150.716 E33.2004
G1 X84.785 Y149.91 E33.28839
G1 X82.369 Y149.213 E33.37203
G1 X79.892 Y148.573 E33.45712
G1 X77.401 Y148.003 E33.54211
G1 X74.915 Y147.51 E33.62641
G1 X72.011 Y147.018 E33.72437
G1 X70.782 Y146.73 E33.76635
G1 X70.359 Y146.603 E33.78104
G1 X69.506 Y146.305 E33.8111
G1 X68.683 Y145.933 E33.84113
G1 F2700 E28.84113
;MESH:Chord03xD-Case.stl
G0 F6000 X86.24 Y115.835
G0 X86.806 Y115.655
;TYPE:WALL-INNER
G1 F2700 E33.84113
G1 F1200 X86.262 Y115.655 E33.85923
G1 X85.747 Y115.518 E33.87695
G1 X85.31 Y115.289 E33.89336
G1 X84.919 Y114.943 E33.91073
G1 X84.619 Y114.517 E33.92806
G1 X84.445 Y114.037 E33.94504
G1 X84.374 Y113.515 E33.96256
G1 X84.445 Y112.995 E33.98002
G1 X84.619 Y112.515 E33.997
G1 X84.919 Y112.089 E34.01433
G1 X85.31 Y111.743 E34.03169
G1 X85.747 Y111.514 E34.0481
G1 X86.254 Y111.377 E34.06557
G1 X86.799 Y111.377 E34.0837
G1 X87.318 Y111.516 E34.10157
G1 X87.755 Y111.744 E34.11796
G1 X88.134 Y112.085 E34.13492
G1 X88.435 Y112.514 E34.15235
G1 X88.615 Y112.994 E34.1694
G1 X88.685 Y113.524 E34.18718
G1 X88.615 Y114.038 E34.20443
G1 X88.435 Y114.518 E34.22148
G1 X88.125 Y114.957 E34.23936
G1 X87.749 Y115.287 E34.256
G1 X87.313 Y115.518 E34.27241
G1 X86.806 Y115.655 E34.28988
G1 F2700 E29.28988
G0 F6000 X88.268 Y115.075
G0 X109.054 Y115.062
G0 X111.082 Y115.655
G1 F2700 E34.28988
G1 F1200 X110.548 Y115.652 E34.30764
G1 X110.041 Y115.527 E34.32501
G1 X109.59 Y115.292 E34.34192
G1 X109.198 Y114.946 E34.35931
G1 X108.905 Y114.518 E34.37656
G1 X108.725 Y114.038 E34.39361
G1 X108.654 Y113.516 E34.41113
G1 X108.725 Y112.994 E34.42866
G1 X108.905 Y112.514 E34.44571
G1 X109.191 Y112.091 E34.46269
G1 X109.587 Y111.741 E34.48027
G1 X110.067 Y111.499 E34.49815
G1 X110.543 Y111.377 E34.51449
G1 X111.078 Y111.377 E34.53228
G1 X111.553 Y111.499 E34.5486
G1 X112.034 Y111.741 E34.5665
G1 X112.431 Y112.094 E34.58417
G1 X112.725 Y112.534 E34.60177
G1 X112.9 Y112.998 E34.61827
G1 X112.961 Y113.518 E34.63568
G1 X112.898 Y114.041 E34.6532
G1 X112.722 Y114.512 E34.66993
G1 X112.419 Y114.952 E34.68769
G1 X112.028 Y115.29 E34.70488
G1 X111.573 Y115.53 E34.72199
G1 X111.082 Y115.655 E34.73885
G1 F2700 E29.73885
G0 F6000 X111.083 Y144.728
G0 X117.5 Y144.928
G1 F2700 E34.73885
G1 F1200 X133.367 Y144.928 E35.26658
G1 X133.367 Y144.245 E35.2893
G1 X133.458 Y143.423 E35.31681
G1 X133.756 Y142.569 E35.34689
G1 X134.228 Y141.812 E35.37656
G1 X134.874 Y141.174 E35.40676
G1 X135.628 Y140.695 E35.43647
G1 X136.471 Y140.4 E35.46618
G1 X137.342 Y140.3 E35.49534
G1 X151.867 Y140.303 E35.97844
G1 X151.864 Y116.545 E36.76864
G1 X151.961 Y115.664 E36.79811
G1 X152.255 Y114.819 E36.82787
G1 X152.731 Y114.061 E36.85764
G1 X153.368 Y113.423 E36.88763
G1 X154.136 Y112.941 E36.91779
G1 X154.977 Y112.652 E36.94736
G1 X155.806 Y112.552 E36.97514
G1 X161.116 Y112.55 E37.15175
G1 X161.116 Y90.068 E37.8995
G1 X73.88 Y90.068 E40.80098
G1 X73.88 Y135.679 E42.31801
G1 X88.401 Y135.672 E42.80098
G1 X89.281 Y135.778 E42.83046
