;FLAVOR:Marlin
;TIME:2628
;Filament used: 1.54853m
;Layer height: 0.2
;MINX:64.876
;MINY:81.062
;MINZ:0.2
;MAXX:170.125
;MAXY:153.938
;MAXZ:4.4
;TARGET_MACHINE.NAME:Creality Ender-3
;Generated with Cura_SteamEngine 5.9.0
M140 S50
M105
M190 S50
M104 S200
M105
M109 S200
M82 ;absolute extrusion mode
; Ender 3 Custom Start G-code
G92 E0 ; Reset Extruder
G28 ; Home all axes
G1 Z2.0 F3000 ; Move Z Axis up little to prevent scratching of Heat Bed
G1 X0.1 Y20 Z0.3 F5000.0 ; Move to start position
G1 X0.1 Y200.0 Z0.3 F1500.0 E15 ; Draw the first line
G1 X0.4 Y200.0 Z0.3 F5000.0 ; Move to side a little
G1 X0.4 Y20 Z0.3 F1500.0 E30 ; Draw the second line
G92 E0 ; Reset Extruder
G1 Z2.0 F3000 ; Move Z Axis up little to prevent scratching of Heat Bed
G1 X5 Y20 Z0.3 F5000.0 ; Move over to prevent blob squish
G92 E0
G92 E0
G1 F2700 E-5
;LAYER_COUNT:22
;LAYER:0
M107
G0 F6000 X81.334 Y148.301 Z0.2
;TYPE:SKIRT
G1 F2700 E0
G1 F1200 X80.458 Y147.877 E0.03237
G1 X79.622 Y147.376 E0.06479
G1 X78.832 Y146.802 E0.09726
G1 X78.448 Y146.495 E0.11362
G1 X77.769 Y145.9 E0.14364
G1 X77.047 Y145.145 E0.17839
G1 X76.483 Y144.439 E0.20844
G1 X75.906 Y143.567 E0.24322
G1 X75.446 Y142.715 E0.27543
G1 X75.216 Y142.239 E0.29301
G1 X74.836 Y141.343 E0.32538
G1 X74.536 Y140.42 E0.35766
G1 X74.339 Y139.593 E0.38593
G1 X73.735 Y136.497 E0.49085
G1 X73.182 Y134.044 E0.57448
G1 X72.565 Y131.643 E0.65694
G1 X71.861 Y129.184 E0.74201
G1 X71.121 Y126.852 E0.82338
G1 X70.271 Y124.417 E0.90916
G1 X69.402 Y122.128 E0.9906
G1 X68.408 Y119.726 E1.07706
G1 X67.391 Y117.449 E1.16
G1 X65.957 Y114.467 E1.27006
G1 X65.578 Y113.571 E1.30241
G1 X65.278 Y112.644 E1.33482
G1 X65.063 Y111.695 E1.36718
G1 X64.932 Y110.734 E1.39944
G1 X64.886 Y109.914 E1.42676
G1 X64.876 Y109.303 E1.44708
G1 X64.876 Y93.411 E1.97565
G1 X64.889 Y92.696 E1.99944
G1 X64.951 Y91.724 E2.03183
G1 X65.098 Y90.762 E2.0642
G1 X65.311 Y89.885 E2.09422
G1 X65.524 Y89.219 E2.11748
G1 X65.641 Y88.894 E2.12896
G1 X66.01 Y87.993 E2.16135
G1 X66.423 Y87.19 E2.19138
G1 X66.843 Y86.504 E2.21813
G1 X67.405 Y85.709 E2.25051
G1 X68.034 Y84.967 E2.28287
G1 X68.698 Y84.309 E2.31396
G1 X69.273 Y83.821 E2.33904
G1 X69.651 Y83.523 E2.35505
G1 X70.413 Y82.974 E2.38629
G1 X71.28 Y82.461 E2.4198
G1 X72.161 Y82.04 E2.45227
G1 X73.007 Y81.723 E2.48232
G1 X73.984 Y81.449 E2.51607
G1 X74.425 Y81.348 E2.53112
G1 X75.373 Y81.176 E2.56316
G1 X76.709 Y81.074 E2.60773
G1 X77.471 Y81.063 E2.63307
G1 X92.684 Y81.062 E3.13906
G1 X93.566 Y81.075 E3.1684
G1 X94.551 Y81.136 E3.20122
G1 X95.836 Y81.351 E3.24456
G1 X96.284 Y81.454 E3.25985
G1 X97.239 Y81.722 E3.29284
G1 X98.149 Y82.067 E3.32521
G1 X99.034 Y82.494 E3.35789
G1 X100.019 Y83.095 E3.39627
G1 X102.448 Y84.758 E3.49417
G1 X104.524 Y86.094 E3.57629
G1 X106.658 Y87.383 E3.65921
G1 X108.884 Y88.64 E3.74423
G1 X111.115 Y89.821 E3.82819
G1 X113.341 Y90.918 E3.91073
G1 X115.658 Y91.983 E3.99554
G1 X117.986 Y92.971 E4.07966
G1 X120.318 Y93.883 E4.16294
G1 X122.655 Y94.724 E4.24555
G1 X125.076 Y95.517 E4.33028
G1 X127.473 Y96.228 E4.41344
G1 X129.953 Y96.89 E4.49881
G1 X132.37 Y97.459 E4.5814
G1 X134.833 Y97.968 E4.66505
G1 X137.286 Y98.401 E4.7479
G1 X139.838 Y98.78 E4.83371
G1 X142.311 Y99.076 E4.91655
G1 X144.807 Y99.303 E4.99991
G1 X147.298 Y99.456 E5.08292
G1 X149.886 Y99.544 E5.16904
G1 X151.609 Y99.562 E5.22635
G1 X157.581 Y99.563 E5.42498
G1 X158.299 Y99.574 E5.44887
G1 X159.3 Y99.636 E5.48223
G1 X160.525 Y99.838 E5.52352
G1 X161.037 Y99.955 E5.54099
G1 X161.975 Y100.217 E5.57338
G1 X162.886 Y100.561 E5.60577
G1 X163.763 Y100.984 E5.63815
G1 X164.6 Y101.484 E5.67058
G1 X165.397 Y102.059 E5.70327
G1 X165.771 Y102.356 E5.71915
G1 X166.452 Y102.949 E5.74919
G1 X167.176 Y103.701 E5.78391
G1 X167.764 Y104.434 E5.81516
G1 X168.325 Y105.277 E5.84884
G1 X168.801 Y106.159 E5.88217
G1 X169.042 Y106.658 E5.9006
G1 X169.398 Y107.488 E5.93064
G1 X169.722 Y108.483 E5.96545
G1 X169.937 Y109.432 E5.99781
G1 X170.068 Y110.393 E6.03007
G1 X170.113 Y111.207 E6.05718
G1 X170.125 Y111.972 E6.08263
G1 X170.124 Y132.256 E6.75728
G1 X170.112 Y132.999 E6.782
G1 X170.053 Y133.971 E6.81438
G1 X169.905 Y134.945 E6.84715
G1 X169.607 Y136.11 E6.88715
G1 X169.481 Y136.502 E6.90084
G1 X169.141 Y137.415 E6.93325
G1 X168.722 Y138.293 E6.9656
G1 X168.253 Y139.094 E6.99648
G1 X167.675 Y139.934 E7.03039
G1 X166.676 Y141.089 E7.08118
G1 X165.864 Y141.843 E7.11804
G1 X165.102 Y142.434 E7.15011
G1 X164.451 Y142.864 E7.17606
G1 X163.607 Y143.348 E7.20842
G1 X162.756 Y143.744 E7.23964
G1 X161.813 Y144.084 E7.27298
G1 X161.055 Y144.291 E7.29911
G1 X160.608 Y144.394 E7.31437
G1 X159.978 Y144.52 E7.33574
G1 X156.981 Y145.031 E7.43686
G1 X154.546 Y145.519 E7.51946
G1 X152.05 Y146.096 E7.60466
G1 X149.639 Y146.724 E7.68753
G1 X147.243 Y147.423 E7.77054
G1 X144.74 Y148.229 E7.858
G1 X143.575 Y148.626 E7.89894
G1 X142.542 Y148.92 E7.93466
G1 X142.079 Y149.026 E7.95046
G1 X141.462 Y149.149 E7.97138
G1 X138.475 Y149.657 E8.07216
G1 X136.066 Y150.141 E8.15388
G1 X133.558 Y150.72 E8.23949
G1 X131.139 Y151.35 E8.32263
G1 X128.73 Y152.052 E8.40609
G1 X126.313 Y152.831 E8.49055
G1 X124.842 Y153.322 E8.54213
G1 X123.813 Y153.601 E8.57759
G1 X123.448 Y153.679 E8.59
G1 X122.479 Y153.843 E8.62269
G1 X121.291 Y153.926 E8.6623
G1 X120.379 Y153.938 E8.69264
G1 X105.169 Y153.937 E9.19852
G1 X104.451 Y153.926 E9.22241
G1 X103.448 Y153.864 E9.25583
G1 X102.144 Y153.645 E9.29981
G1 X101.657 Y153.531 E9.31645
G1 X100.653 Y153.244 E9.35118
G1 X99.476 Y152.846 E9.3925
G1 X96.981 Y152.043 E9.47968
G1 X94.591 Y151.347 E9.56247
G1 X92.144 Y150.71 E9.64657
G1 X89.648 Y150.136 E9.73175
G1 X87.224 Y149.648 E9.814
G1 X84.268 Y149.145 E9.91373
G1 X83.663 Y149.024 E9.93425
G1 X83.199 Y148.916 E9.95009
G1 X82.245 Y148.647 E9.98306
G1 X81.334 Y148.301 E10.01547
G0 F6000 X82.386 Y148.273
G1 F1200 X81.508 Y147.941 E10.04669
G1 X80.663 Y147.534 E10.07789
G1 X79.857 Y147.052 E10.10912
G1 X79.067 Y146.478 E10.1416
G1 X78.712 Y146.194 E10.15672
G1 X78.033 Y145.599 E10.18675
G1 X77.36 Y144.895 E10.21914
G1 X76.796 Y144.189 E10.2492
G1 X76.258 Y143.377 E10.28159
G1 X75.806 Y142.541 E10.3132
G1 X75.584 Y142.082 E10.33016
G1 X75.216 Y141.219 E10.36137
G1 X74.925 Y140.328 E10.39254
G1 X74.732 Y139.516 E10.4203
G1 X74.128 Y136.42 E10.52522
G1 X73.572 Y133.956 E10.60923
G1 X72.95 Y131.533 E10.69243
G1 X72.246 Y129.074 E10.7775
G1 X71.499 Y126.72 E10.85965
G1 X70.649 Y124.285 E10.94543
G1 X69.772 Y121.975 E11.02761
G1 X68.778 Y119.573 E11.11407
G1 X67.756 Y117.286 E11.19738
G1 X66.325 Y114.311 E11.30719
G1 X65.958 Y113.447 E11.33841
G1 X65.668 Y112.555 E11.3696
G1 X65.459 Y111.64 E11.40082
G1 X65.331 Y110.712 E11.43198
G1 X65.286 Y109.907 E11.45879
G1 X65.276 Y109.296 E11.47912
G1 X65.276 Y93.418 E12.00722
G1 X65.288 Y92.721 E12.03041
G1 X65.346 Y91.784 E12.06163
G1 X65.487 Y90.856 E12.09285
G1 X65.7 Y89.979 E12.12287
G1 X65.9 Y89.354 E12.1447
G1 X66.011 Y89.045 E12.15562
G1 X66.366 Y88.176 E12.18684
G1 X66.779 Y87.373 E12.21687
G1 X67.17 Y86.734 E12.24179
G1 X67.71 Y85.967 E12.27299
G1 X68.316 Y85.251 E12.30419
G1 X68.98 Y84.593 E12.33528
G1 X69.521 Y84.135 E12.35885
G1 X69.885 Y83.848 E12.37427
G1 X70.647 Y83.299 E12.40551
G1 X71.453 Y82.822 E12.43666
G1 X72.301 Y82.415 E12.46794
G1 X73.147 Y82.098 E12.49799
G1 X74.074 Y81.839 E12.53
G1 X74.496 Y81.742 E12.54441
G1 X75.444 Y81.57 E12.57645
G1 X76.715 Y81.474 E12.61885
G1 X77.471 Y81.463 E12.64399
G1 X92.678 Y81.462 E13.14978
G1 X93.542 Y81.474 E13.17852
G1 X94.485 Y81.531 E13.20994
G1 X95.746 Y81.741 E13.25246
G1 X96.194 Y81.844 E13.26775
G1 X97.098 Y82.096 E13.29896
G1 X97.976 Y82.427 E13.33017
G1 X98.826 Y82.836 E13.36155
G1 X99.793 Y83.425 E13.3992
G1 X102.222 Y85.088 E13.49711
G1 X104.317 Y86.436 E13.57997
G1 X106.461 Y87.731 E13.66328
G1 X108.697 Y88.994 E13.74869
G1 X110.93 Y90.176 E13.83273
G1 X113.164 Y91.277 E13.91556
G1 X115.502 Y92.351 E14.00114
G1 X117.833 Y93.34 E14.08536
G1 X120.173 Y94.256 E14.16894
G1 X122.53 Y95.104 E14.25225
G1 X124.962 Y95.901 E14.33737
G1 X127.359 Y96.611 E14.42052
G1 X129.861 Y97.279 E14.50665
G1 X132.289 Y97.851 E14.58962
G1 X134.754 Y98.36 E14.67333
G1 X137.227 Y98.797 E14.75686
G1 X139.779 Y99.176 E14.84267
G1 X142.264 Y99.473 E14.92591
G1 X144.782 Y99.702 E15.01
G1 X147.284 Y99.856 E15.09338
G1 X149.872 Y99.944 E15.17951
G1 X151.605 Y99.962 E15.23715
G1 X157.575 Y99.963 E15.43571
G1 X158.275 Y99.973 E15.459
G1 X159.235 Y100.031 E15.49098
G1 X160.46 Y100.233 E15.53228
G1 X160.93 Y100.34 E15.54831
G1 X161.834 Y100.591 E15.57952
G1 X162.713 Y100.921 E15.61074
G1 X163.559 Y101.328 E15.64197
G1 X164.366 Y101.808 E15.6732
G1 X165.148 Y102.372 E15.70527
G1 X165.508 Y102.658 E15.72056
G1 X166.189 Y103.251 E15.75059
G1 X166.864 Y103.952 E15.78296
G1 X167.431 Y104.656 E15.81303
G1 X167.973 Y105.467 E15.84547
G1 X168.441 Y106.333 E15.87821
G1 X168.674 Y106.816 E15.89604
G1 X169.03 Y107.646 E15.92608
G1 X169.332 Y108.572 E15.95848
G1 X169.541 Y109.487 E15.9897
G1 X169.669 Y110.415 E16.02085
G1 X169.713 Y111.213 E16.04743
G1 X169.725 Y111.972 E16.07268
G1 X169.724 Y132.25 E16.74713
G1 X169.713 Y132.975 E16.77125
G1 X169.657 Y133.912 E16.80247
G1 X169.517 Y134.846 E16.83388
G1 X169.219 Y136.011 E16.87388
G1 X169.106 Y136.363 E16.88617
G1 X168.78 Y137.243 E16.91738
G1 X168.377 Y138.091 E16.94861
G1 X167.923 Y138.868 E16.97854
G1 X167.372 Y139.673 E17.01099
G1 X166.404 Y140.796 E17.0603
G1 X165.618 Y141.527 E17.096
G1 X164.881 Y142.1 E17.12705
G1 X164.251 Y142.517 E17.15218
G1 X163.438 Y142.985 E17.18338
G1 X162.587 Y143.381 E17.2146
G1 X161.707 Y143.698 E17.24571
G1 X160.965 Y143.901 E17.2713
G1 X160.529 Y144.002 E17.28618
G1 X159.911 Y144.126 E17.30715
G1 X156.902 Y144.639 E17.40867
G1 X154.456 Y145.129 E17.49164
G1 X151.96 Y145.706 E17.57685
G1 X149.531 Y146.339 E17.66033
G1 X147.12 Y147.042 E17.74386
G1 X144.617 Y147.848 E17.83132
G1 X143.465 Y148.241 E17.87181
G1 X142.452 Y148.53 E17.90684
G1 X142.001 Y148.634 E17.92224
G1 X141.395 Y148.755 E17.94279
G1 X138.396 Y149.265 E18.04397
G1 X135.976 Y149.751 E18.12607
G1 X133.468 Y150.33 E18.21168
G1 X131.031 Y150.965 E18.29544
G1 X128.607 Y151.671 E18.37941
G1 X126.19 Y152.451 E18.46388
G1 X124.737 Y152.936 E18.51483
G1 X123.728 Y153.21 E18.54961
G1 X123.381 Y153.285 E18.56141
G1 X122.451 Y153.444 E18.59279
G1 X121.286 Y153.526 E18.63164
G1 X120.379 Y153.538 E18.66181
G1 X105.175 Y153.537 E19.1675
G1 X104.475 Y153.527 E19.19078
G1 X103.514 Y153.469 E19.2228
G1 X102.235 Y153.255 E19.26593
G1 X101.767 Y153.146 E19.28191
G1 X100.781 Y152.865 E19.31601
G1 X99.599 Y152.465 E19.35752
G1 X97.104 Y151.662 E19.44469
G1 X94.699 Y150.962 E19.528
G1 X92.234 Y150.32 E19.61273
G1 X89.738 Y149.746 E19.69791
G1 X87.303 Y149.256 E19.78052
G1 X84.347 Y148.753 E19.88025
G1 X83.753 Y148.634 E19.9004
G1 X83.307 Y148.531 E19.91563
G1 X82.386 Y148.273 E19.94744
G0 F6000 X83.843 Y148.244
G1 F1200 X83.397 Y148.141 E19.96266
G1 X82.527 Y147.899 E19.9927
G1 X81.681 Y147.581 E20.02276
G1 X80.868 Y147.19 E20.05276
G1 X80.092 Y146.728 E20.0828
G1 X79.317 Y146.166 E20.11464
G1 X78.976 Y145.893 E20.12917
G1 X78.297 Y145.298 E20.1592
G1 X77.673 Y144.645 E20.18924
G1 X77.109 Y143.939 E20.21929
G1 X76.61 Y143.187 E20.24931
G1 X76.166 Y142.367 E20.28032
G1 X75.952 Y141.924 E20.29669
G1 X75.596 Y141.094 E20.32673
G1 X75.314 Y140.236 E20.35676
G1 X75.125 Y139.439 E20.38401
G1 X74.521 Y136.343 E20.48892
G1 X73.962 Y133.868 E20.57332
G1 X73.335 Y131.423 E20.65727
G1 X72.631 Y128.964 E20.74234
G1 X71.877 Y126.588 E20.82525
G1 X71.027 Y124.153 E20.91103
G1 X70.142 Y121.822 E20.99396
G1 X69.148 Y119.42 E21.08042
G1 X68.121 Y117.123 E21.16411
G1 X66.693 Y114.154 E21.27369
G1 X66.338 Y113.323 E21.30374
G1 X66.058 Y112.465 E21.33376
G1 X65.855 Y111.585 E21.3638
G1 X65.73 Y110.69 E21.39385
G1 X65.686 Y109.9 E21.42017
G1 X65.676 Y109.289 E21.4405
G1 X65.676 Y93.424 E21.96817
G1 X65.687 Y92.745 E21.99075
G1 X65.742 Y91.843 E22.02081
G1 X65.876 Y90.95 E22.05084
G1 X66.089 Y90.073 E22.08086
G1 X66.277 Y89.488 E22.1013
G1 X66.381 Y89.196 E22.11161
G1 X66.722 Y88.359 E22.14167
G1 X67.135 Y87.556 E22.1717
G1 X67.498 Y86.964 E22.1948
G1 X68.016 Y86.225 E22.22481
G1 X68.598 Y85.535 E22.25484
G1 X69.239 Y84.898 E22.28489
G1 X69.769 Y84.449 E22.308
G1 X70.119 Y84.172 E22.32284
G1 X70.851 Y83.643 E22.35288
G1 X71.627 Y83.182 E22.3829
G1 X72.441 Y82.79 E22.41295
G1 X73.287 Y82.473 E22.443
G1 X74.164 Y82.229 E22.47328
G1 X74.586 Y82.132 E22.48768
G1 X75.474 Y81.969 E22.51771
G1 X76.721 Y81.874 E22.5593
G1 X77.471 Y81.863 E22.58425
G1 X92.673 Y81.862 E23.08987
G1 X93.519 Y81.873 E23.11801
G1 X94.42 Y81.926 E23.14803
G1 X95.656 Y82.131 E23.1897
G1 X96.087 Y82.23 E23.20441
G1 X96.958 Y82.471 E23.23447
G1 X97.803 Y82.788 E23.26449
G1 X98.618 Y83.178 E23.29454
G1 X99.567 Y83.755 E23.33148
G1 X101.996 Y85.418 E23.42939
G1 X104.11 Y86.778 E23.51299
G1 X106.264 Y88.079 E23.59669
G1 X108.5 Y89.342 E23.6821
G1 X110.753 Y90.535 E23.76689
G1 X112.997 Y91.641 E23.8501
G1 X115.335 Y92.714 E23.93566
G1 X117.68 Y93.709 E24.02039
G1 X120.028 Y94.629 E24.10426
G1 X122.405 Y95.484 E24.18828
G1 X124.848 Y96.285 E24.27379
G1 X127.247 Y96.996 E24.35702
G1 X129.758 Y97.665 E24.44344
G1 X132.208 Y98.243 E24.52717
G1 X134.675 Y98.752 E24.61095
G1 X137.168 Y99.193 E24.69515
G1 X139.72 Y99.572 E24.78097
G1 X142.217 Y99.87 E24.86461
G1 X144.757 Y100.101 E24.94943
G1 X147.27 Y100.256 E25.03318
G1 X149.858 Y100.344 E25.1193
G1 X151.601 Y100.362 E25.17728
G1 X157.569 Y100.363 E25.37578
G1 X158.269 Y100.373 E25.39906
G1 X159.17 Y100.426 E25.42908
G1 X160.395 Y100.628 E25.47037
G1 X160.824 Y100.726 E25.48501
G1 X161.694 Y100.966 E25.51503
G1 X162.54 Y101.282 E25.54506
G1 X163.355 Y101.672 E25.57511
G1 X164.132 Y102.132 E25.60515
G1 X164.899 Y102.685 E25.6366
G1 X165.245 Y102.96 E25.6513
G1 X165.926 Y103.553 E25.68133
G1 X166.552 Y104.203 E25.71134
G1 X167.119 Y104.907 E25.74141
G1 X167.621 Y105.657 E25.77143
G1 X168.089 Y106.523 E25.80417
G1 X168.306 Y106.974 E25.82081
G1 X168.662 Y107.804 E25.85085
G1 X168.942 Y108.662 E25.88087
G1 X169.145 Y109.542 E25.91091
G1 X169.27 Y110.437 E25.94096
G1 X169.313 Y111.219 E25.96701
G1 X169.325 Y111.972 E25.99206
G1 X169.324 Y132.244 E26.66631
G1 X169.314 Y132.952 E26.68986
G1 X169.261 Y133.854 E26.71991
G1 X169.129 Y134.747 E26.74994
G1 X168.831 Y135.912 E26.78993
G1 X168.731 Y136.225 E26.80086
G1 X168.419 Y137.072 E26.83088
G1 X168.032 Y137.889 E26.86095
G1 X167.578 Y138.666 E26.89088
G1 X167.069 Y139.412 E26.92092
G1 X166.131 Y140.504 E26.9688
G1 X165.372 Y141.212 E27.00332
G1 X164.66 Y141.767 E27.03335
G1 X164.051 Y142.171 E27.05766
G1 X163.269 Y142.623 E27.0877
G1 X162.451 Y143.005 E27.11772
G1 X161.602 Y143.312 E27.14775
G1 X160.874 Y143.511 E27.17285
G1 X160.45 Y143.61 E27.18734
G1 X159.844 Y143.732 E27.2079
G1 X156.823 Y144.247 E27.30982
G1 X154.366 Y144.739 E27.39317
G1 X151.87 Y145.316 E27.47837
G1 X149.423 Y145.954 E27.56248
G1 X146.997 Y146.661 E27.64653
G1 X144.494 Y147.467 E27.73399
G1 X143.355 Y147.856 E27.77402
G1 X142.362 Y148.14 E27.80837
G1 X141.922 Y148.242 E27.82339
G1 X141.328 Y148.361 E27.84354
G1 X138.317 Y148.873 E27.94513
G1 X135.886 Y149.361 E28.02759
G1 X133.378 Y149.94 E28.1132
G1 X130.923 Y150.58 E28.19759
G1 X128.484 Y151.29 E28.28208
G1 X126.067 Y152.07 E28.36655
G1 X125.488 Y152.27 E28.38692
G1 X124.632 Y152.55 E28.41688
G1 X123.642 Y152.819 E28.451
G1 X123.313 Y152.891 E28.4622
G1 X122.423 Y153.045 E28.49224
G1 X121.281 Y153.126 E28.53032
G1 X120.379 Y153.138 E28.56032
G1 X105.181 Y153.137 E29.06581
G1 X104.481 Y153.127 E29.0891
G1 X103.58 Y153.074 E29.11911
G1 X102.325 Y152.865 E29.16143
G1 X101.876 Y152.761 E29.17676
G1 X100.909 Y152.486 E29.2102
G1 X99.722 Y152.084 E29.25188
G1 X97.227 Y151.281 E29.33906
G1 X94.807 Y150.577 E29.42288
G1 X92.324 Y149.93 E29.50822
G1 X89.828 Y149.356 E29.59341
G1 X87.382 Y148.864 E29.67639
G1 X84.426 Y148.361 E29.77612
G1 X83.843 Y148.244 E29.7959
G1 F2700 E24.7959
;MESH:Chord03xD-Plate.stl
G0 F6000 X99.395 Y136.872
G0 X101.505 Y136.712
;TYPE:WALL-INNER
G1 F2700 E29.7959
G1 F1200 X87.324 Y136.712 E30.26756
G1 X86.899 Y136.537 E30.28285
G1 X86.724 Y136.199 E30.29551
G1 X86.724 Y122.012 E30.76737
