;FLAVOR:Marlin
;TIME:8314
;Filament used: 5.67377m
;Layer height: 0.2
;MINX:61.563
;MINY:77.751
;MINZ:0.2
;MAXX:173.437
;MAXY:157.249
;MAXZ:11.4
;TARGET_MACHINE.NAME:Creality Ender-3
;Generated with Cura_SteamEngine 5.9.0
M140 S50
M105
M190 S50
M104 S200
M105
M109 S200
M82 ;absolute extrusion mode
; Ender 3 Custom Start G-code
G92 E0 ; Reset Extruder
G28 ; Home all axes
G1 Z2.0 F3000 ; Move Z Axis up little to prevent scratching of Heat Bed
G1 X0.1 Y20 Z0.3 F5000.0 ; Move to start position
G1 X0.1 Y200.0 Z0.3 F1500.0 E15 ; Draw the first line
G1 X0.4 Y200.0 Z0.3 F5000.0 ; Move to side a little
G1 X0.4 Y20 Z0.3 F1500.0 E30 ; Draw the second line
G92 E0 ; Reset Extruder
G1 Z2.0 F3000 ; Move Z Axis up little to prevent scratching of Heat Bed
G1 X5 Y20 Z0.3 F5000.0 ; Move over to prevent blob squish
G92 E0
G92 E0
G1 F2700 E-5
;LAYER_COUNT:57
;LAYER:0
M107
G0 F6000 X71.065 Y142.634 Z0.2
;TYPE:SKIRT
G1 F2700 E0
G1 F1200 X70.79 Y141.201 E0.04853
G1 X70.256 Y138.654 E0.13509
G1 X69.683 Y136.25 E0.21728
G1 X69.024 Y133.804 E0.30154
G1 X68.299 Y131.389 E0.3854
G1 X67.506 Y128.996 E0.46925
G1 X66.643 Y126.613 E0.55355
G1 X65.721 Y124.281 E0.63695
G1 X64.732 Y121.972 E0.7205
G1 X63.672 Y119.676 E0.80461
G1 X62.824 Y117.937 E0.86896
G1 X62.296 Y116.633 E0.91575
G1 X62.13 Y116.129 E0.9334
G1 X61.869 Y115.19 E0.96582
G1 X61.69 Y114.22 E0.99862
G1 X61.589 Y112.98 E1.04
G1 X61.563 Y111.609 E1.08561
G1 X61.564 Y90.596 E1.7845
G1 X61.578 Y89.791 E1.81128
G1 X61.638 Y88.82 E1.84364
G1 X61.772 Y87.926 E1.87371
G1 X62.041 Y86.83 E1.91124
G1 X62.211 Y86.264 E1.9309
G1 X62.509 Y85.412 E1.96092
G1 X62.94 Y84.461 E1.99565
G1 X63.383 Y83.674 E2.02568
G1 X63.794 Y83.058 E2.05031
G1 X64.036 Y82.723 E2.06406
G1 X64.64 Y81.96 E2.09643
G1 X65.309 Y81.252 E2.12882
G1 X66.006 Y80.632 E2.15985
G1 X66.74 Y80.073 E2.19054
G1 X67.549 Y79.532 E2.22291
G1 X68.416 Y79.057 E2.25579
G1 X69.645 Y78.542 E2.30011
G1 X70.05 Y78.402 E2.31436
G1 X70.98 Y78.128 E2.34661
G1 X71.804 Y77.956 E2.3746
G1 X72.816 Y77.818 E2.40857
G1 X73.602 Y77.773 E2.43476
G1 X74.829 Y77.751 E2.47558
G1 X160.574 Y77.753 E5.32747
G1 X161.23 Y77.763 E5.34929
G1 X162.206 Y77.821 E5.38181
G1 X162.812 Y77.902 E5.40214
G1 X163.217 Y77.968 E5.41579
G1 X164.102 Y78.151 E5.44585
G1 X164.848 Y78.367 E5.47168
G1 X165.153 Y78.468 E5.48237
G1 X166.064 Y78.814 E5.51478
G1 X166.952 Y79.246 E5.54762
G1 X168.059 Y79.935 E5.59099
G1 X168.439 Y80.206 E5.60651
G1 X169.204 Y80.808 E5.63889
G1 X169.913 Y81.475 E5.67127
G1 X170.556 Y82.196 E5.7034
G1 X171.12 Y82.937 E5.73437
G1 X171.661 Y83.746 E5.76674
G1 X172.131 Y84.599 E5.79913
G1 X172.497 Y85.424 E5.82915
G1 X172.808 Y86.306 E5.86026
G1 X173.076 Y87.236 E5.89245
G1 X173.241 Y88.048 E5.92001
G1 X173.375 Y89.059 E5.95393
G1 X173.415 Y89.793 E5.97838
G1 X173.437 Y91.03 E6.01953
G1 X173.435 Y135.105 E7.48547
G1 X173.424 Y135.802 E7.50865
G1 X173.368 Y136.761 E7.5406
G1 X173.287 Y137.37 E7.56104
G1 X173.22 Y137.783 E7.57495
G1 X173.021 Y138.731 E7.60717
G1 X172.79 Y139.508 E7.63413
G1 X172.685 Y139.817 E7.64499
G1 X172.331 Y140.724 E7.67737
G1 X171.932 Y141.534 E7.7074
G1 X171.239 Y142.644 E7.75092
G1 X170.991 Y142.99 E7.76508
G1 X170.39 Y143.757 E7.79749
G1 X169.724 Y144.465 E7.82982
G1 X169.004 Y145.11 E7.86197
G1 X168.307 Y145.642 E7.89114
G1 X167.461 Y146.212 E7.92507
G1 X166.594 Y146.689 E7.95798
G1 X165.355 Y147.208 E8.00266
G1 X164.949 Y147.348 E8.01694
G1 X164.051 Y147.613 E8.04808
G1 X163.227 Y147.786 E8.07609
G1 X161.196 Y148.13 E8.1446
G1 X158.639 Y148.607 E8.23111
G1 X156.186 Y149.137 E8.31458
G1 X153.77 Y149.729 E8.39732
G1 X151.312 Y150.406 E8.48211
G1 X148.916 Y151.142 E8.56548
G1 X146.364 Y152 E8.65503
G1 X145.435 Y152.266 E8.68717
G1 X144.726 Y152.41 E8.71123
G1 X142.756 Y152.744 E8.77769
G1 X140.139 Y153.232 E8.86623
G1 X137.675 Y153.764 E8.95007
G1 X135.281 Y154.351 E9.03206
G1 X132.812 Y155.031 E9.11723
G1 X130.416 Y155.767 E9.2006
G1 X127.864 Y156.625 E9.29015
G1 X126.937 Y156.891 E9.32222
G1 X126.203 Y157.042 E9.34715
G1 X125.193 Y157.181 E9.38106
G1 X124.398 Y157.227 E9.40754
G1 X123.172 Y157.249 E9.44833
G1 X102.162 Y157.248 E10.14712
G1 X101.348 Y157.234 E10.1742
G1 X100.376 Y157.174 E10.20659
G1 X99.447 Y157.034 E10.23784
G1 X98.426 Y156.784 E10.2728
G1 X97.448 Y156.484 E10.30682
G1 X96.311 Y156.103 E10.34671
G1 X93.791 Y155.297 E10.43471
G1 X91.407 Y154.61 E10.51722
G1 X88.964 Y153.978 E10.60115
G1 X86.473 Y153.408 E10.68615
G1 X84.019 Y152.921 E10.76936
G1 X81.079 Y152.421 E10.86855
G1 X79.802 Y152.121 E10.91218
G1 X79.345 Y151.984 E10.92805
G1 X78.492 Y151.686 E10.9581
G1 X77.54 Y151.254 E10.99287
G1 X76.703 Y150.781 E11.02485
G1 X76.143 Y150.406 E11.04726
G1 X75.792 Y150.154 E11.06163
G1 X75.027 Y149.55 E11.09405
G1 X74.318 Y148.881 E11.12647
G1 X73.677 Y148.159 E11.15859
G1 X73.122 Y147.426 E11.18917
G1 X72.57 Y146.597 E11.22229
G1 X72.104 Y145.743 E11.25465
G1 X71.716 Y144.856 E11.28685
G1 X71.412 Y143.972 E11.31794
G1 X71.065 Y142.634 E11.36392
G0 F6000 X71.799 Y143.871
G1 F1200 X71.458 Y142.559 E11.409
G1 X71.183 Y141.126 E11.45753
G1 X70.648 Y138.572 E11.54432
G1 X70.072 Y136.157 E11.6269
G1 X69.41 Y133.7 E11.71154
G1 X68.679 Y131.263 E11.79616
G1 X67.886 Y128.87 E11.88001
G1 X67.019 Y126.477 E11.96466
G1 X66.093 Y124.134 E12.04845
G1 X65.1 Y121.815 E12.13236
G1 X64.035 Y119.508 E12.21687
G1 X63.184 Y117.762 E12.28147
G1 X62.676 Y116.507 E12.32651
G1 X62.515 Y116.021 E12.34353
G1 X62.262 Y115.117 E12.37476
G1 X62.089 Y114.188 E12.40619
G1 X61.988 Y112.948 E12.44757
G1 X61.963 Y111.609 E12.49211
G1 X61.964 Y90.603 E13.19077
G1 X61.977 Y89.815 E13.21698
G1 X62.034 Y88.879 E13.24817
G1 X62.168 Y87.985 E13.27824
G1 X62.424 Y86.945 E13.31386
G1 X62.589 Y86.396 E13.33293
G1 X62.887 Y85.544 E13.36295
G1 X63.289 Y84.657 E13.39534
G1 X63.732 Y83.87 E13.42538
G1 X64.119 Y83.292 E13.44851
G1 X64.35 Y82.971 E13.46167
G1 X64.931 Y82.234 E13.49288
G1 X65.575 Y81.551 E13.5241
G1 X66.249 Y80.95 E13.55414
G1 X66.963 Y80.405 E13.58401
G1 X67.742 Y79.882 E13.61522
G1 X68.571 Y79.426 E13.64669
G1 X69.8 Y78.911 E13.69101
G1 X70.164 Y78.786 E13.70381
G1 X71.062 Y78.52 E13.73496
G1 X71.886 Y78.348 E13.76296
G1 X72.839 Y78.217 E13.79495
G1 X73.609 Y78.173 E13.82061
G1 X74.829 Y78.151 E13.86119
G1 X160.568 Y78.153 E16.71288
G1 X161.206 Y78.162 E16.7341
G1 X162.153 Y78.218 E16.76565
G1 X162.748 Y78.297 E16.78562
G1 X163.136 Y78.36 E16.79869
G1 X164.021 Y78.543 E16.82875
G1 X164.723 Y78.747 E16.85306
G1 X165.012 Y78.842 E16.86318
G1 X165.89 Y79.174 E16.8944
G1 X166.741 Y79.586 E16.92585
G1 X167.848 Y80.275 E16.96922
G1 X168.192 Y80.521 E16.98328
G1 X168.93 Y81.1 E17.01448
G1 X169.615 Y81.742 E17.04571
G1 X170.238 Y82.439 E17.0768
G1 X170.788 Y83.16 E17.10696
G1 X171.311 Y83.939 E17.13817
G1 X171.765 Y84.761 E17.1694
G1 X172.131 Y85.586 E17.19942
G1 X172.424 Y86.417 E17.22873
G1 X172.684 Y87.316 E17.25985
G1 X172.849 Y88.128 E17.28741
G1 X172.976 Y89.081 E17.31939
G1 X173.015 Y89.8 E17.34334
G1 X173.037 Y91.03 E17.38426
G1 X173.035 Y135.099 E18.85
G1 X173.025 Y135.779 E18.87262
G1 X172.971 Y136.709 E18.9036
G1 X172.892 Y137.306 E18.92363
G1 X172.828 Y137.701 E18.93694
G1 X172.637 Y138.617 E18.96806
G1 X172.411 Y139.38 E18.99453
G1 X172.312 Y139.672 E19.00478
G1 X171.972 Y140.547 E19.03601
G1 X171.573 Y141.357 E19.06604
G1 X170.913 Y142.412 E19.10743
G1 X170.676 Y142.744 E19.12099
G1 X170.098 Y143.483 E19.1522
G1 X169.457 Y144.167 E19.18338
G1 X168.761 Y144.792 E19.21449
G1 X168.064 Y145.324 E19.24365
G1 X167.268 Y145.862 E19.27561
G1 X166.439 Y146.32 E19.30711
G1 X165.2 Y146.839 E19.35179
G1 X164.836 Y146.964 E19.36459
G1 X163.938 Y147.229 E19.39573
G1 X163.16 Y147.392 E19.42217
G1 X161.123 Y147.737 E19.49088
G1 X158.555 Y148.216 E19.57777
G1 X156.091 Y148.748 E19.66161
G1 X153.675 Y149.34 E19.74434
G1 X151.206 Y150.021 E19.82953
G1 X148.788 Y150.763 E19.91365
G1 X146.254 Y151.616 E20.00258
G1 X145.355 Y151.874 E20.03369
G1 X144.659 Y152.016 E20.05732
G1 X142.683 Y152.351 E20.12398
G1 X140.055 Y152.841 E20.21289
G1 X137.591 Y153.373 E20.29673
G1 X135.175 Y153.966 E20.37947
G1 X132.706 Y154.646 E20.46465
G1 X130.288 Y155.388 E20.54877
G1 X127.754 Y156.241 E20.6377
G1 X126.856 Y156.499 E20.66878
G1 X126.122 Y156.65 E20.6937
G1 X125.17 Y156.782 E20.72567
G1 X124.391 Y156.827 E20.75162
G1 X123.172 Y156.849 E20.79217
G1 X102.169 Y156.848 E21.49074
G1 X101.372 Y156.835 E21.51725
G1 X100.435 Y156.778 E21.54847
G1 X99.542 Y156.645 E21.5785
G1 X98.521 Y156.395 E21.61346
G1 X97.575 Y156.105 E21.64637
G1 X96.433 Y155.722 E21.68643
G1 X93.913 Y154.916 E21.77443
G1 X91.513 Y154.224 E21.85751
G1 X89.053 Y153.588 E21.94202
G1 X86.562 Y153.018 E22.02701
G1 X84.092 Y152.528 E22.11076
G1 X81.17 Y152.032 E22.20934
G1 X79.917 Y151.738 E22.25215
G1 X79.477 Y151.606 E22.26742
G1 X78.624 Y151.308 E22.29748
G1 X77.737 Y150.906 E22.32987
G1 X76.925 Y150.448 E22.36087
G1 X76.376 Y150.081 E22.38284
G1 X76.039 Y149.84 E22.39662
G1 X75.301 Y149.259 E22.42786
G1 X74.617 Y148.615 E22.4591
G1 X73.996 Y147.917 E22.49018
G1 X73.455 Y147.204 E22.51995
G1 X72.921 Y146.405 E22.55191
G1 X72.47 Y145.582 E22.58312
G1 X72.094 Y144.725 E22.61425
G1 X71.799 Y143.871 E22.6443
G0 F6000 X72.472 Y144.594
G1 F1200 X72.186 Y143.77 E22.67331
G1 X71.851 Y142.484 E22.71751
G1 X71.576 Y141.051 E22.76604
G1 X71.04 Y138.49 E22.85307
G1 X70.461 Y136.064 E22.93602
G1 X69.796 Y133.596 E23.02104
G1 X69.059 Y131.137 E23.10642
G1 X68.266 Y128.744 E23.19027
G1 X67.395 Y126.341 E23.27528
G1 X66.465 Y123.987 E23.35946
G1 X65.468 Y121.658 E23.44372
G1 X64.398 Y119.34 E23.52864
G1 X63.544 Y117.587 E23.59349
G1 X63.047 Y116.357 E23.63762
G1 X62.9 Y115.912 E23.6532
G1 X62.655 Y115.043 E23.68323
G1 X62.488 Y114.156 E23.71325
G1 X62.387 Y112.916 E23.75463
G1 X62.363 Y111.609 E23.79811
G1 X62.364 Y90.609 E24.49657
G1 X62.376 Y89.839 E24.52219
G1 X62.43 Y88.938 E24.55221
G1 X62.564 Y88.044 E24.58228
G1 X62.807 Y87.06 E24.61599
G1 X62.967 Y86.528 E24.63446
G1 X63.265 Y85.676 E24.66449
G1 X63.638 Y84.853 E24.69454
G1 X64.081 Y84.066 E24.72458
G1 X64.444 Y83.525 E24.74625
G1 X64.664 Y83.218 E24.75881
G1 X65.222 Y82.508 E24.78884
G1 X65.841 Y81.85 E24.81889
G1 X66.515 Y81.249 E24.84892
G1 X67.187 Y80.737 E24.87702
G1 X67.936 Y80.232 E24.90707
G1 X68.726 Y79.795 E24.9371
G1 X69.931 Y79.289 E24.98056
G1 X70.278 Y79.169 E24.99278
G1 X71.144 Y78.912 E25.02282
G1 X71.968 Y78.74 E25.05082
G1 X72.862 Y78.616 E25.08084
G1 X73.616 Y78.573 E25.10596
G1 X74.829 Y78.551 E25.14631
G1 X160.562 Y78.553 E27.9978
G1 X161.2 Y78.562 E28.01902
G1 X162.101 Y78.615 E28.04904
G1 X162.684 Y78.692 E28.0686
G1 X163.055 Y78.752 E28.0811
G1 X163.94 Y78.935 E28.11116
G1 X164.599 Y79.127 E28.13399
G1 X164.871 Y79.216 E28.14351
G1 X165.716 Y79.534 E28.17353
G1 X166.53 Y79.926 E28.20358
G1 X167.616 Y80.601 E28.24611
G1 X167.946 Y80.836 E28.25959
G1 X168.657 Y81.392 E28.28961
G1 X169.317 Y82.009 E28.31966
G1 X169.92 Y82.682 E28.34971
G1 X170.456 Y83.384 E28.37909
G1 X170.961 Y84.133 E28.40913
G1 X171.399 Y84.923 E28.43918
G1 X171.765 Y85.748 E28.4692
G1 X172.04 Y86.529 E28.49674
G1 X172.292 Y87.396 E28.52677
G1 X172.457 Y88.208 E28.55433
G1 X172.577 Y89.103 E28.58436
G1 X172.615 Y89.807 E28.60781
G1 X172.637 Y91.03 E28.64849
G1 X172.635 Y135.094 E30.11407
G1 X172.626 Y135.756 E30.13609
G1 X172.574 Y136.657 E30.1661
G1 X172.497 Y137.242 E30.18573
G1 X172.436 Y137.62 E30.19846
G1 X172.253 Y138.504 E30.22849
G1 X172.032 Y139.252 E30.25443
G1 X171.939 Y139.528 E30.26412
G1 X171.613 Y140.37 E30.29415
G1 X171.214 Y141.18 E30.32418
G1 X170.587 Y142.18 E30.36344
G1 X170.361 Y142.498 E30.37641
G1 X169.806 Y143.21 E30.40644
G1 X169.19 Y143.87 E30.43647
G1 X168.518 Y144.474 E30.46652
G1 X167.821 Y145.006 E30.49568
G1 X167.074 Y145.512 E30.52569
G1 X166.284 Y145.951 E30.55575
G1 X165.069 Y146.461 E30.59958
G1 X164.722 Y146.581 E30.61179
G1 X163.856 Y146.838 E30.64184
G1 X163.093 Y146.998 E30.66776
G1 X161.05 Y147.344 E30.73668
G1 X158.471 Y147.825 E30.82394
G1 X156.007 Y148.357 E30.90778
G1 X153.569 Y148.955 E30.99127
G1 X151.1 Y149.636 E31.07646
G1 X148.66 Y150.384 E31.16134
G1 X146.143 Y151.232 E31.24968
G1 X145.275 Y151.482 E31.27972
G1 X144.592 Y151.622 E31.30291
G1 X142.61 Y151.958 E31.36978
G1 X139.971 Y152.45 E31.45906
G1 X137.507 Y152.982 E31.5429
G1 X135.069 Y153.58 E31.62639
G1 X132.6 Y154.261 E31.71158
G1 X130.16 Y155.009 E31.79646
G1 X127.643 Y155.857 E31.8848
G1 X126.775 Y156.107 E31.91485
G1 X126.041 Y156.258 E31.93977
G1 X125.147 Y156.383 E31.96979
G1 X124.384 Y156.427 E31.99521
G1 X123.172 Y156.449 E32.03553
G1 X102.175 Y156.448 E32.73389
G1 X101.396 Y156.436 E32.75981
G1 X100.494 Y156.382 E32.78986
G1 X99.601 Y156.249 E32.81989
G1 X98.638 Y156.012 E32.85287
G1 X97.702 Y155.726 E32.88543
G1 X96.555 Y155.341 E32.92567
G1 X94.035 Y154.535 E33.01367
G1 X91.619 Y153.838 E33.0973
G1 X89.142 Y153.198 E33.18239
G1 X86.651 Y152.628 E33.26738
G1 X84.165 Y152.135 E33.35168
G1 X81.261 Y151.643 E33.44964
G1 X80.032 Y151.355 E33.49163
G1 X79.609 Y151.228 E33.50632
G1 X78.756 Y150.93 E33.53637
G1 X77.933 Y150.558 E33.56641
G1 X77.147 Y150.115 E33.59642
G1 X76.609 Y149.756 E33.61793
G1 X76.286 Y149.525 E33.63114
G1 X75.575 Y148.967 E33.6612
G1 X74.916 Y148.349 E33.69125
G1 X74.315 Y147.675 E33.72128
G1 X73.774 Y146.962 E33.75105
G1 X73.271 Y146.212 E33.78108
G1 X72.836 Y145.421 E33.81111
G1 X72.472 Y144.594 E33.84116
G1 F2700 E28.84116
;MESH:Chord03xD-Case.stl
G0 F6000 X100.369 Y144.747
G0 X117.5 Y144.928
;TYPE:WALL-INNER
G1 F2700 E33.84116
G1 F1200 X124.118 Y144.928 E34.06128
G1 X124.115 Y144.246 E34.08396
G1 X124.207 Y143.413 E34.11184
G1 X124.504 Y142.572 E34.1415
G1 X124.977 Y141.821 E34.17102
G1 X125.623 Y141.176 E34.20138
G1 X126.378 Y140.692 E34.23121
G1 X127.231 Y140.399 E34.26121
G1 X128.089 Y140.3 E34.28994
G1 X142.615 Y140.304 E34.77307
G1 X142.615 Y139.617 E34.79592
G1 X142.706 Y138.795 E34.82343
G1 X143.004 Y137.941 E34.85351
G1 X143.474 Y137.196 E34.88281
G1 X144.119 Y136.555 E34.91305
G1 X144.885 Y136.066 E34.94328
G1 X145.735 Y135.77 E34.97322
G1 X146.624 Y135.675 E35.00295
G1 X161.116 Y135.676 E35.48496
G1 X161.116 Y90.068 E37.00189
G1 X73.88 Y90.068 E39.90337
G1 X73.88 Y112.555 E40.65129
G1 X79.194 Y112.551 E40.82803
G1 X80.015 Y112.646 E40.85552
G1 X80.86 Y112.939 E40.88527
G1 X81.624 Y113.423 E40.91535
G1 X82.265 Y114.058 E40.94536
G1 X82.743 Y114.832 E40.97562
G1 X83.042 Y115.676 E41.0054
G1 X83.135 Y116.519 E41.03361
G1 X83.133 Y140.303 E41.82467
G1 X97.658 Y140.3 E42.30777
G1 X98.514 Y140.395 E42.33641
G1 X99.358 Y140.69 E42.36615
G1 X100.122 Y141.174 E42.39623
G1 X100.767 Y141.81 E42.42636
G1 X101.239 Y142.564 E42.45595
G1 X101.542 Y143.418 E42.48609
G1 X101.633 Y144.246 E42.51379
G1 X101.634 Y144.928 E42.53647
G1 X117.5 Y144.928 E43.06418
G1 F2700 E38.06418
G0 F6000 X123.913 Y144.728
G0 X124.319 Y115.836
G0 X123.913 Y115.655
G1 F2700 E43.06418
G1 F1200 X123.421 Y115.529 E43.08107
G1 X122.963 Y115.292 E43.09822
G1 X122.567 Y114.941 E43.11582
G1 X122.276 Y114.507 E43.1332
G1 X122.096 Y114.03 E43.15016
G1 X122.032 Y113.505 E43.16775
G1 X122.105 Y112.98 E43.18538
G1 X122.271 Y112.534 E43.20121
G1 X122.565 Y112.094 E43.21881
G1 X122.962 Y111.741 E43.23648
G1 X123.443 Y111.499 E43.25439
G1 X123.919 Y111.377 E43.27073
G1 X124.454 Y111.377 E43.28852
G1 X124.929 Y111.499 E43.30484
G1 X125.41 Y111.741 E43.32274
G1 X125.794 Y112.085 E43.33989
G1 X126.092 Y112.508 E43.3571
G1 X126.271 Y112.994 E43.37433
G1 X126.341 Y113.516 E43.39185
G1 X126.271 Y114.038 E43.40936
G1 X126.093 Y114.522 E43.42651
G1 X125.799 Y114.945 E43.44365
G1 X125.405 Y115.294 E43.46115
G1 X124.923 Y115.535 E43.47908
G1 X124.448 Y115.657 E43.49539
G1 X123.913 Y115.655 E43.51318
G1 F2700 E38.51318
G0 F6000 X125.934 Y115.068
G0 X146.719 Y115.066
G0 X148.201 Y115.655
G1 F2700 E43.51318
G1 F1200 X147.711 Y115.528 E43.53002
G1 X147.239 Y115.286 E43.54766
G1 X146.857 Y114.946 E43.56467
G1 X146.564 Y114.523 E43.58178
G1 X146.381 Y114.038 E43.59903
G1 X146.316 Y113.511 E43.61669
G1 X146.381 Y112.994 E43.63402
G1 X146.563 Y112.509 E43.65125
G1 X146.855 Y112.088 E43.66829
G1 X147.243 Y111.743 E43.68556
G1 X147.723 Y111.499 E43.70347
G1 X148.204 Y111.377 E43.71997
