;FLAVOR:Marlin
;TIME:6095
;Filament used: 3.17547m
;Layer height: 0.2
;MINX:41.751
;MINY:62.562
;MINZ:0.2
;MAXX:193.25
;MAXY:172.438
;MAXZ:3
;TARGET_MACHINE.NAME:Creality Ender-3
;Generated with Cura_SteamEngine 5.9.0
M140 S50
M105
M190 S50
M104 S200
M105
M109 S200
M82 ;absolute extrusion mode
; Ender 3 Custom Start G-code
G92 E0 ; Reset Extruder
G28 ; Home all axes
G1 Z2.0 F3000 ; Move Z Axis up little to prevent scratching of Heat Bed
G1 X0.1 Y20 Z0.3 F5000.0 ; Move to start position
G1 X0.1 Y200.0 Z0.3 F1500.0 E15 ; Draw the first line
G1 X0.4 Y200.0 Z0.3 F5000.0 ; Move to side a little
G1 X0.4 Y20 Z0.3 F1500.0 E30 ; Draw the second line
G92 E0 ; Reset Extruder
G1 Z2.0 F3000 ; Move Z Axis up little to prevent scratching of Heat Bed
G1 X5 Y20 Z0.3 F5000.0 ; Move over to prevent blob squish
G92 E0
G92 E0
G1 F2700 E-5
;LAYER_COUNT:15
;LAYER:0
M107
G0 F6000 X47.716 Y102.89 Z0.2
;TYPE:SKIRT
G1 F2700 E0
G1 F1200 X46.373 Y100.709 E0.08519
G1 X44.991 Y98.598 E0.16911
G1 X43.903 Y96.999 E0.23344
G1 X43.389 Y96.157 E0.26625
G1 X42.829 Y94.986 E0.30942
G1 X42.602 Y94.421 E0.32967
G1 X42.282 Y93.503 E0.36201
G1 X42.059 Y92.627 E0.39207
G1 X41.929 Y91.88 E0.41729
G1 X41.865 Y91.418 E0.4328
G1 X41.765 Y90.125 E0.47594
G1 X41.751 Y89.271 E0.50434
G1 X41.752 Y76.164 E0.94029
G1 X41.77 Y75.332 E0.96796
G1 X41.836 Y74.361 E1.00033
G1 X41.984 Y73.41 E1.03235
G1 X42.131 Y72.777 E1.05396
G1 X42.32 Y72.066 E1.07843
G1 X42.613 Y71.137 E1.11083
G1 X42.958 Y70.302 E1.14088
G1 X43.472 Y69.322 E1.17768
G1 X43.716 Y68.908 E1.19367
G1 X44.257 Y68.085 E1.22642
G1 X45.027 Y67.135 E1.2671
G1 X45.346 Y66.787 E1.2828
G1 X46.002 Y66.129 E1.3137
G1 X46.253 Y65.898 E1.32505
G1 X46.944 Y65.316 E1.3551
G1 X47.999 Y64.593 E1.39763
G1 X48.708 Y64.181 E1.42491
G1 X49.037 Y64.004 E1.43733
G1 X49.884 Y63.597 E1.46859
G1 X50.831 Y63.241 E1.50224
G1 X51.85 Y62.963 E1.53737
G1 X52.478 Y62.826 E1.55875
G1 X53.439 Y62.661 E1.59118
G1 X54.464 Y62.579 E1.62538
G1 X55.025 Y62.567 E1.64404
G1 X68.414 Y62.562 E2.08936
G1 X69.291 Y62.575 E2.11853
G1 X70.276 Y62.635 E2.15136
G1 X70.609 Y62.672 E2.1625
G1 X71.603 Y62.827 E2.19596
G1 X72.848 Y63.158 E2.23881
G1 X75.848 Y64.16 E2.34401
G1 X78.29 Y64.899 E2.42887
G1 X80.701 Y65.555 E2.51197
G1 X83.154 Y66.15 E2.59592
G1 X85.682 Y66.686 E2.68187
G1 X88.156 Y67.137 E2.76552
G1 X89.871 Y67.422 E2.82334
G1 X90.834 Y67.627 E2.85609
G1 X91.564 Y67.844 E2.88142
G1 X94.103 Y68.697 E2.9705
G1 X96.496 Y69.43 E3.05374
G1 X98.936 Y70.105 E3.13795
G1 X101.389 Y70.706 E3.22195
G1 X103.845 Y71.236 E3.30551
G1 X106.328 Y71.7 E3.38953
G1 X107.997 Y71.972 E3.44577
G1 X108.835 Y72.136 E3.47417
G1 X110.331 Y72.55 E3.5258
G1 X111.321 Y72.944 E3.56124
G1 X112.126 Y73.339 E3.59106
G1 X112.598 Y73.592 E3.60888
G1 X113.205 Y73.938 E3.63211
G1 X115.477 Y75.194 E3.71846
G1 X117.698 Y76.341 E3.8016
G1 X119.946 Y77.423 E3.88458
G1 X122.244 Y78.447 E3.96826
G1 X124.61 Y79.425 E4.05341
G1 X126.959 Y80.317 E4.13698
G1 X129.336 Y81.146 E4.22071
G1 X131.708 Y81.897 E4.30346
G1 X134.142 Y82.593 E4.38766
G1 X136.578 Y83.216 E4.47129
G1 X139.007 Y83.765 E4.55412
G1 X141.502 Y84.255 E4.63869
G1 X144.014 Y84.676 E4.7234
G1 X146.457 Y85.012 E4.80542
G1 X148.986 Y85.289 E4.89004
G1 X151.509 Y85.494 E4.97423
G1 X153.969 Y85.621 E5.05616
G1 X157.517 Y85.689 E5.17419
G1 X179.41 Y85.687 E5.90235
G1 X180.292 Y85.7 E5.93169
G1 X181.284 Y85.761 E5.96475
G1 X181.615 Y85.798 E5.97582
G1 X182.593 Y85.952 E6.00875
G1 X183.528 Y86.183 E6.04079
G1 X184.127 Y86.38 E6.06176
G1 X184.687 Y86.581 E6.08155
G1 X185.554 Y86.938 E6.11273
G1 X186.389 Y87.369 E6.14399
G1 X186.841 Y87.628 E6.16131
G1 X187.664 Y88.15 E6.19373
G1 X188.411 Y88.722 E6.22502
G1 X189.224 Y89.474 E6.26186
G1 X189.588 Y89.848 E6.27921
G1 X190.232 Y90.571 E6.31142
G1 X190.783 Y91.301 E6.34184
G1 X191.316 Y92.104 E6.37389
G1 X191.657 Y92.713 E6.39711
G1 X191.857 Y93.101 E6.41163
G1 X192.265 Y93.99 E6.44416
G1 X192.626 Y95.019 E6.48043
G1 X192.743 Y95.42 E6.49432
G1 X193.03 Y96.673 E6.53708
G1 X193.09 Y97.042 E6.54951
G1 X193.206 Y97.999 E6.58157
G1 X193.235 Y98.638 E6.60285
G1 X193.249 Y99.499 E6.63149
G1 X193.25 Y149.337 E8.28911
G1 X193.237 Y150.228 E8.31875
G1 X193.169 Y151.276 E8.35368
G1 X193.042 Y152.195 E8.38453
G1 X192.988 Y152.491 E8.39454
G1 X192.771 Y153.441 E8.42695
G1 X192.48 Y154.343 E8.45847
G1 X192.323 Y154.76 E8.47329
G1 X191.94 Y155.655 E8.50567
G1 X191.483 Y156.507 E8.53783
G1 X190.978 Y157.295 E8.56896
G1 X190.406 Y158.087 E8.60145
G1 X189.945 Y158.633 E8.62522
G1 X189.669 Y158.937 E8.63888
G1 X188.989 Y159.624 E8.67103
G1 X188.43 Y160.107 E8.6956
G1 X188.09 Y160.379 E8.71008
G1 X187.309 Y160.949 E8.74224
G1 X186.566 Y161.406 E8.77125
G1 X185.682 Y161.877 E8.80457
G1 X184.688 Y162.293 E8.84041
G1 X184.205 Y162.467 E8.85748
G1 X183.267 Y162.756 E8.89013
G1 X182.115 Y162.992 E8.92924
G1 X181.667 Y163.057 E8.94429
G1 X180.338 Y163.167 E8.98865
G1 X179.371 Y163.184 E9.02082
G1 X173.393 Y163.186 E9.21964
G1 X170.814 Y163.223 E9.30543
G1 X168.237 Y163.333 E9.39122
G1 X165.789 Y163.507 E9.47285
G1 X163.283 Y163.756 E9.55661
G1 X160.73 Y164.082 E9.64221
G1 X158.289 Y164.466 E9.7244
G1 X155.798 Y164.929 E9.80867
G1 X153.341 Y165.457 E9.89225
G1 X150.928 Y166.051 E9.97491
G1 X148.414 Y166.744 E10.06164
G1 X146.63 Y167.28 E10.1236
G1 X145.268 Y167.593 E10.17008
G1 X144.151 Y167.774 E10.20771
G1 X141.707 Y168.206 E10.29026
G1 X139.199 Y168.722 E10.37542
G1 X136.785 Y169.292 E10.45792
G1 X134.33 Y169.944 E10.54241
G1 X131.886 Y170.667 E10.62718
G1 X129.441 Y171.468 E10.71275
G1 X128.52 Y171.781 E10.7451
G1 X127.619 Y172.043 E10.77631
G1 X126.618 Y172.242 E10.81026
G1 X126.171 Y172.307 E10.82528
G1 X124.837 Y172.417 E10.8698
G1 X123.871 Y172.433 E10.90193
G1 X111.203 Y172.438 E11.32327
G1 X110.154 Y172.419 E11.35817
G1 X109.342 Y172.373 E11.38522
G1 X109.023 Y172.342 E11.39588
G1 X108.058 Y172.205 E11.4283
G1 X107.125 Y171.987 E11.46017
G1 X106.629 Y171.835 E11.47742
G1 X103.524 Y170.8 E11.58628
G1 X101.139 Y170.079 E11.66915
G1 X98.712 Y169.42 E11.75279
G1 X96.221 Y168.819 E11.83802
G1 X93.801 Y168.306 E11.9203
G1 X90.773 Y167.762 E12.02263
G1 X89.686 Y167.584 E12.05926
G1 X88.77 Y167.391 E12.0904
G1 X87.96 Y167.151 E12.11849
G1 X87.079 Y166.849 E12.14947
G1 X84.577 Y166.032 E12.23701
G1 X82.162 Y165.317 E12.32078
G1 X79.748 Y164.674 E12.40387
G1 X77.305 Y164.099 E12.48735
G1 X74.777 Y163.579 E12.57319
G1 X72.298 Y163.141 E12.65692
G1 X71.179 Y162.957 E12.69463
G1 X70.26 Y162.763 E12.72587
G1 X69.281 Y162.464 E12.75992
G1 X68.848 Y162.308 E12.77523
G1 X67.935 Y161.931 E12.80808
G1 X67.177 Y161.543 E12.8364
G1 X66.877 Y161.373 E12.84787
G1 X66.064 Y160.865 E12.87976
G1 X65.623 Y160.545 E12.89788
G1 X65.166 Y160.194 E12.91705
G1 X64.421 Y159.567 E12.94943
G1 X63.783 Y158.929 E12.97944
G1 X62.862 Y157.784 E13.02832
G1 X62.49 Y157.251 E13.04993
G1 X62.006 Y156.489 E13.07996
G1 X61.424 Y155.336 E13.12292
G1 X61.069 Y154.455 E13.15451
G1 X60.95 Y154.119 E13.16636
G1 X60.675 Y153.218 E13.1977
G1 X60.454 Y152.146 E13.2341
G1 X60.383 Y151.681 E13.24975
G1 X60.283 Y150.729 E13.28158
G1 X60.265 Y150.249 E13.29756
G1 X60.251 Y149.378 E13.32653
G1 X60.25 Y148.501 E13.3557
G1 X60.213 Y145.907 E13.44199
G1 X60.104 Y143.363 E13.52668
G1 X59.928 Y140.878 E13.60954
G1 X59.681 Y138.383 E13.69293
G1 X59.36 Y135.876 E13.77699
G1 X58.97 Y133.393 E13.86059
G1 X58.508 Y130.908 E13.94466
G1 X57.984 Y128.468 E14.02766
G1 X57.388 Y126.047 E14.11059
G1 X56.708 Y123.566 E14.19615
G1 X55.982 Y121.199 E14.2785
G1 X55.171 Y118.797 E14.36282
G1 X54.289 Y116.404 E14.44764
G1 X53.368 Y114.114 E14.52974
G1 X52.353 Y111.78 E14.61439
G1 X51.292 Y109.517 E14.69752
G1 X50.152 Y107.254 E14.7818
G1 X48.951 Y105.029 E14.86589
G1 X47.716 Y102.89 E14.94805
G0 F6000 X48.057 Y102.68
G1 F1200 X46.714 Y100.499 E15.03324
G1 X45.326 Y98.379 E15.11752
G1 X44.244 Y96.79 E15.18145
G1 X43.75 Y95.984 E15.2129
G1 X43.19 Y94.813 E15.25607
G1 X42.98 Y94.289 E15.27484
G1 X42.67 Y93.404 E15.30603
G1 X42.447 Y92.528 E15.3361
G1 X42.325 Y91.825 E15.35983
G1 X42.264 Y91.387 E15.37454
G1 X42.165 Y90.118 E15.41687
G1 X42.151 Y89.271 E15.44505
G1 X42.152 Y76.172 E15.88072
G1 X42.169 Y75.358 E15.9078
G1 X42.231 Y74.422 E15.939
G1 X42.374 Y73.5 E15.97004
G1 X42.518 Y72.88 E15.99121
G1 X42.702 Y72.186 E16.01509
G1 X42.983 Y71.29 E16.04632
G1 X43.328 Y70.455 E16.07637
G1 X43.816 Y69.525 E16.1113
G1 X44.051 Y69.127 E16.12667
G1 X44.568 Y68.337 E16.15807
G1 X45.338 Y67.387 E16.19875
G1 X45.629 Y67.069 E16.21308
G1 X46.273 Y66.423 E16.24342
G1 X46.511 Y66.204 E16.25418
G1 X47.202 Y65.622 E16.28423
G1 X48.2 Y64.939 E16.32445
G1 X48.897 Y64.533 E16.35128
G1 X49.21 Y64.365 E16.36309
G1 X50.057 Y63.958 E16.39435
G1 X50.936 Y63.627 E16.42559
G1 X51.936 Y63.354 E16.46007
G1 X52.546 Y63.22 E16.48084
G1 X53.471 Y63.06 E16.51206
G1 X54.473 Y62.979 E16.5455
G1 X55.025 Y62.967 E16.56386
G1 X68.408 Y62.962 E17.00898
G1 X69.267 Y62.974 E17.03755
G1 X70.233 Y63.033 E17.06974
G1 X70.548 Y63.067 E17.08028
G1 X71.5 Y63.214 E17.11232
G1 X72.745 Y63.545 E17.15517
G1 X75.732 Y64.543 E17.25991
G1 X78.174 Y65.282 E17.34477
G1 X80.607 Y65.944 E17.42864
G1 X83.06 Y66.539 E17.51259
G1 X85.599 Y67.077 E17.59891
G1 X88.091 Y67.532 E17.68317
G1 X89.788 Y67.813 E17.74038
G1 X90.72 Y68.01 E17.77206
G1 X91.437 Y68.223 E17.79694
G1 X93.986 Y69.08 E17.88638
G1 X96.379 Y69.812 E17.96961
G1 X98.841 Y70.494 E18.05458
G1 X101.294 Y71.095 E18.13858
G1 X103.759 Y71.627 E18.22246
G1 X106.264 Y72.095 E18.30722
G1 X107.92 Y72.365 E18.36302
G1 X108.758 Y72.529 E18.39142
G1 X110.183 Y72.922 E18.44059
G1 X111.173 Y73.316 E18.47603
G1 X111.937 Y73.691 E18.50433
G1 X112.4 Y73.94 E18.52182
G1 X113.011 Y74.288 E18.54521
G1 X115.283 Y75.544 E18.63155
G1 X117.514 Y76.696 E18.71506
G1 X119.783 Y77.788 E18.79882
G1 X122.091 Y78.817 E18.88286
G1 X124.457 Y79.795 E18.96802
G1 X126.827 Y80.695 E19.05233
G1 X129.204 Y81.524 E19.13606
G1 X131.598 Y82.282 E19.21958
G1 X134.038 Y82.98 E19.30399
G1 X136.479 Y83.604 E19.38779
G1 X138.93 Y84.158 E19.47137
G1 X141.431 Y84.649 E19.55614
G1 X143.948 Y85.07 E19.64102
G1 X146.414 Y85.41 E19.72382
G1 X148.947 Y85.687 E19.80857
G1 X151.477 Y85.892 E19.89299
G1 X153.961 Y86.021 E19.97572
G1 X157.509 Y86.089 E20.09375
G1 X179.404 Y86.087 E20.82198
G1 X180.267 Y86.099 E20.85069
G1 X181.24 Y86.159 E20.88311
G1 X181.571 Y86.196 E20.89419
G1 X182.497 Y86.34 E20.92536
G1 X183.403 Y86.563 E20.95639
G1 X183.992 Y86.756 E20.977
G1 X184.535 Y86.951 E20.99619
G1 X185.371 Y87.294 E21.02625
G1 X186.19 Y87.716 E21.05689
G1 X186.627 Y87.966 E21.07364
G1 X187.421 Y88.468 E21.10488
G1 X188.168 Y89.04 E21.13617
G1 X188.938 Y89.753 E21.17108
G1 X189.29 Y90.114 E21.18785
G1 X189.913 Y90.812 E21.21897
G1 X190.45 Y91.522 E21.24857
G1 X190.967 Y92.3 E21.27964
G1 X191.302 Y92.897 E21.30241
G1 X191.494 Y93.268 E21.31631
G1 X191.888 Y94.123 E21.34762
G1 X192.242 Y95.131 E21.38315
G1 X192.353 Y95.51 E21.39629
G1 X192.635 Y96.738 E21.43819
G1 X192.693 Y97.09 E21.45006
G1 X192.806 Y98.017 E21.48112
G1 X192.835 Y98.645 E21.50203
G1 X192.849 Y99.499 E21.53044
G1 X192.85 Y149.331 E23.18785
G1 X192.838 Y150.202 E23.21683
G1 X192.77 Y151.25 E23.25176
G1 X192.649 Y152.123 E23.28107
G1 X192.598 Y152.402 E23.2905
G1 X192.39 Y153.318 E23.32175
G1 X192.099 Y154.22 E23.35327
G1 X191.955 Y154.603 E23.36688
G1 X191.587 Y155.466 E23.39808
G1 X191.146 Y156.291 E23.4292
G1 X190.641 Y157.079 E23.46033
G1 X190.1 Y157.829 E23.49108
G1 X189.648 Y158.365 E23.5144
G1 X189.385 Y158.656 E23.52745
G1 X188.727 Y159.321 E23.55856
G1 X188.168 Y159.804 E23.58314
G1 X187.854 Y160.056 E23.59653
G1 X187.099 Y160.608 E23.62763
G1 X186.377 Y161.053 E23.65584
G1 X185.527 Y161.508 E23.68791
G1 X184.552 Y161.917 E23.72308
G1 X184.087 Y162.085 E23.73952
G1 X183.187 Y162.364 E23.77086
G1 X182.057 Y162.596 E23.80923
G1 X181.634 Y162.658 E23.82345
G1 X180.305 Y162.768 E23.8678
G1 X179.371 Y162.784 E23.89887
G1 X173.387 Y162.786 E24.0979
G1 X170.797 Y162.823 E24.18405
G1 X168.22 Y162.933 E24.26984
G1 X165.754 Y163.108 E24.35207
G1 X163.232 Y163.359 E24.43636
G1 X160.679 Y163.685 E24.52197
G1 X158.227 Y164.071 E24.60452
G1 X155.714 Y164.538 E24.68954
G1 X153.257 Y165.066 E24.77312
G1 X150.822 Y165.665 E24.85653
G1 X148.308 Y166.358 E24.94326
G1 X146.54 Y166.89 E25.00467
G1 X145.204 Y167.198 E25.05027
G1 X144.087 Y167.379 E25.08791
G1 X141.626 Y167.814 E25.17103
G1 X139.118 Y168.33 E25.25619
G1 X136.682 Y168.905 E25.33944
G1 X134.227 Y169.557 E25.42392
G1 X131.773 Y170.283 E25.50904
G1 X129.312 Y171.089 E25.59517
G1 X128.408 Y171.397 E25.62694
G1 X127.541 Y171.651 E25.65699
G1 X126.56 Y171.846 E25.69025
G1 X126.138 Y171.908 E25.70444
G1 X124.804 Y172.018 E25.74896
G1 X123.871 Y172.033 E25.77999
G1 X111.21 Y172.038 E26.2011
G1 X110.177 Y172.02 E26.23546
G1 X109.38 Y171.975 E26.26201
G1 X109.079 Y171.946 E26.27207
G1 X108.149 Y171.815 E26.30331
G1 X107.242 Y171.604 E26.33428
G1 X106.756 Y171.456 E26.35118
G1 X103.64 Y170.417 E26.46043
G1 X101.255 Y169.696 E26.5433
G1 X98.806 Y169.031 E26.6277
G1 X96.315 Y168.43 E26.71293
G1 X93.872 Y167.912 E26.79599
G1 X90.844 Y167.368 E26.89832
G1 X89.768 Y167.192 E26.93458
G1 X88.884 Y167.007 E26.96462
G1 X88.074 Y166.767 E26.99272
G1 X87.203 Y166.469 E27.02333
G1 X84.691 Y165.648 E27.11123
G1 X82.276 Y164.933 E27.195
G1 X79.851 Y164.288 E27.27846
G1 X77.386 Y163.707 E27.3627
G1 X74.858 Y163.187 E27.44854
G1 X72.363 Y162.746 E27.53281
G1 X71.261 Y162.565 E27.56995
G1 X70.377 Y162.38 E27.59999
G1 X69.416 Y162.087 E27.63341
G1 X69 Y161.938 E27.6481
G1 X68.117 Y161.575 E27.67986
G1 X67.374 Y161.195 E27.70761
G1 X67.089 Y161.034 E27.7185
G1 X66.299 Y160.541 E27.74947
G1 X65.866 Y160.227 E27.76726
G1 X65.423 Y159.888 E27.78582
G1 X64.704 Y159.284 E27.81705
G1 X64.066 Y158.646 E27.84706
G1 X63.19 Y157.555 E27.89359
G1 X62.828 Y157.037 E27.91461
G1 X62.344 Y156.275 E27.94464
G1 X61.795 Y155.186 E27.9852
G1 X61.446 Y154.322 E28.01619
G1 X61.333 Y154.002 E28.02748
G1 X61.058 Y153.101 E28.05881
G1 X60.846 Y152.066 E28.09395
G1 X60.781 Y151.639 E28.10832
G1 X60.683 Y150.714 E28.13925
G1 X60.665 Y150.243 E28.15493
G1 X60.651 Y149.378 E28.18371
G1 X60.65 Y148.501 E28.21287
G1 X60.613 Y145.901 E28.29936
G1 X60.504 Y143.346 E28.38442
G1 X60.327 Y140.85 E28.46764
G1 X60.078 Y138.332 E28.5518
G1 X59.757 Y135.825 E28.63586
G1 X59.365 Y133.331 E28.71983
G1 X58.901 Y130.835 E28.80427
G1 X58.375 Y128.384 E28.88765
G1 X57.774 Y125.941 E28.97133
G1 X57.093 Y123.46 E29.0569
G1 X56.361 Y121.071 E29.14
G1 X55.55 Y118.669 E29.22432
G1 X54.664 Y116.266 E29.30951
G1 X53.735 Y113.954 E29.39238
G1 X52.72 Y111.62 E29.47703
G1 X51.654 Y109.347 E29.56053
G1 X50.509 Y107.074 E29.64518
G1 X49.303 Y104.839 E29.72965
G1 X48.057 Y102.68 E29.81256
G0 F6000 X48.398 Y102.47
G1 F1200 X47.055 Y100.289 E29.89775
G1 X45.661 Y98.16 E29.98239
G1 X44.585 Y96.58 E30.04597
G1 X44.111 Y95.811 E30.07602
G1 X43.551 Y94.64 E30.11919
G1 X43.357 Y94.157 E30.1365
G1 X43.058 Y93.305 E30.16653
G1 X42.835 Y92.429 E30.1966
G1 X42.721 Y91.77 E30.21884
G1 X42.663 Y91.356 E30.23275
G1 X42.565 Y90.111 E30.27428
G1 X42.551 Y89.271 E30.30222
G1 X42.552 Y76.18 E30.73763
G1 X42.568 Y75.384 E30.76411
G1 X42.626 Y74.483 E30.79414
G1 X42.764 Y73.59 E30.8242
G1 X42.905 Y72.982 E30.84496
G1 X43.084 Y72.305 E30.86825
G1 X43.353 Y71.443 E30.89828
G1 X43.698 Y70.608 E30.92833
G1 X44.16 Y69.728 E30.96139
G1 X44.386 Y69.345 E30.97618
G1 X44.879 Y68.589 E31.0062
G1 X45.634 Y67.657 E31.04609
G1 X45.913 Y67.351 E31.05986
G1 X46.544 Y66.717 E31.08961
G1 X46.769 Y66.51 E31.09978
G1 X47.46 Y65.928 E31.12983
G1 X48.401 Y65.285 E31.16774
G1 X49.087 Y64.885 E31.19415
G1 X49.384 Y64.725 E31.20537
G1 X50.198 Y64.332 E31.23543
G1 X51.042 Y64.013 E31.26544
G1 X52.022 Y63.745 E31.29924
G1 X52.615 Y63.614 E31.31944
G1 X53.504 Y63.459 E31.34945
G1 X54.482 Y63.379 E31.38209
G1 X55.025 Y63.367 E31.40015
G1 X68.403 Y63.362 E31.84511
G1 X69.243 Y63.373 E31.87305
G1 X70.19 Y63.431 E31.9046
G1 X70.505 Y63.465 E31.91514
G1 X71.397 Y63.601 E31.94515
G1 X72.642 Y63.932 E31.988
G1 X75.616 Y64.926 E32.09229
G1 X78.058 Y65.665 E32.17715
G1 X80.513 Y66.333 E32.26177
G1 X82.966 Y66.928 E32.34573
